;FLAVOR:Marlin
;TIME:1922
;Filament used: 1.02548m
;Layer height: 0.2
;MINX:94.947
;MINY:113.648
;MINZ:0.2
;MAXX:140.054
;MAXY:121.378
;MAXZ:24.6
;Generated with Cura_SteamEngine main
M140 S50
M105
M190 S50
M104 S210
M105
M109 S210
M82 ;absolute extrusion mode
; Ender 3 Custom Start G-code
G92 E0 ; Reset Extruder
G28 ; Home all axes
G1 Z2.0 F3000 ; Move Z Axis up little to prevent scratching of Heat Bed
G1 X0.1 Y20 Z0.3 F5000.0 ; Move to start position
G1 X0.1 Y200.0 Z0.3 F1500.0 E15 ; Draw the first line
G1 X0.4 Y200.0 Z0.3 F5000.0 ; Move to side a little
G1 X0.4 Y20 Z0.3 F1500.0 E30 ; Draw the second line
G92 E0 ; Reset Extruder
G1 Z2.0 F3000 ; Move Z Axis up little to prevent scratching of Heat Bed
G1 X5 Y20 Z0.3 F5000.0 ; Move over to prevent blob squish
G92 E0
G92 E0
G1 F2700 E-5
;LAYER_COUNT:123
;LAYER:0
M107
;MESH:Body1.stl
G0 F6000 X114.869 Y120.941 Z0.2
;TYPE:WALL-INNER
G1 F2700 E0
G1 F1200 X117.479 Y120.978 E0.08682
G1 X120.254 Y120.949 E0.17912
G1 X122.797 Y120.864 E0.26375
G1 X125.503 Y120.71 E0.35389
G1 X128.126 Y120.499 E0.44142
G1 X130.727 Y120.232 E0.52838
G1 X133.426 Y119.891 E0.61887
G1 X136.063 Y119.498 E0.70754
G1 X138.703 Y119.043 E0.79664
G1 X139.607 Y118.929 E0.82695
G1 X139.01 Y114.164 E0.98667
G1 X138.123 Y114.277 E1.01641
G1 X135.526 Y114.732 E1.1041
G1 X132.96 Y115.118 E1.19041
G1 X130.472 Y115.435 E1.27383
G1 X127.834 Y115.711 E1.36205
G1 X125.245 Y115.916 E1.44843
G1 X122.678 Y116.064 E1.53395
G1 X120.083 Y116.149 E1.62031
G1 X117.502 Y116.174 E1.70615
G1 X114.92 Y116.14 E1.79204
G1 X112.339 Y116.047 E1.87794
G1 X109.76 Y115.892 E1.96387
G1 X107.184 Y115.677 E2.04985
G1 X104.536 Y115.392 E2.13843
G1 X102.048 Y115.067 E2.22188
G1 X99.5 Y114.675 E2.30763
G1 X96.893 Y114.211 E2.3957
G1 X96.016 Y114.096 E2.42512
G1 X95.395 Y118.864 E2.58504
G1 X96.309 Y118.983 E2.6157
G1 X98.978 Y119.451 E2.70582
G1 X101.614 Y119.852 E2.79451
G1 X104.274 Y120.195 E2.88371
G1 X106.902 Y120.471 E2.9716
G1 X109.561 Y120.691 E3.06034
G1 X112.184 Y120.846 E3.14773
G1 X114.869 Y120.941 E3.23709
G0 F6000 X114.801 Y121.34
;TYPE:WALL-OUTER
G1 F1200 X117.478 Y121.378 E3.32614
G1 X120.267 Y121.349 E3.41891
G1 X122.873 Y121.261 E3.50563
G1 X125.535 Y121.109 E3.59431
G1 X128.167 Y120.897 E3.68214
G1 X130.832 Y120.622 E3.77125
G1 X133.423 Y120.296 E3.8581
G1 X136.068 Y119.903 E3.94704
G1 X138.753 Y119.44 E4.03766
G1 X140.054 Y119.276 E4.08128
G1 X139.357 Y113.717 E4.26762
G1 X138.082 Y113.878 E4.31036
G1 X135.466 Y114.336 E4.39869
G1 X132.91 Y114.721 E4.48467
G1 X130.43 Y115.037 E4.56782
G1 X127.788 Y115.313 E4.65617
G1 X125.222 Y115.517 E4.74178
G1 X122.655 Y115.664 E4.8273
G1 X120.079 Y115.749 E4.91303
G1 X117.507 Y115.774 E4.99858
G1 X114.934 Y115.74 E5.08416
G1 X112.363 Y115.647 E5.16973
G1 X109.793 Y115.493 E5.25536
G1 X107.227 Y115.279 E5.341
G1 X104.588 Y114.996 E5.42928
G1 X102.108 Y114.671 E5.51247
G1 X99.556 Y114.278 E5.59835
G1 X96.954 Y113.815 E5.68625
G1 X95.671 Y113.648 E5.72929
G1 X94.947 Y119.209 E5.91581
G1 X96.24 Y119.377 E5.95917
G1 X98.918 Y119.847 E6.04961
G1 X101.563 Y120.249 E6.13859
G1 X104.232 Y120.593 E6.2281
G1 X106.839 Y120.867 E6.31528
G1 X109.564 Y121.092 E6.40622
G1 X112.17 Y121.246 E6.49305
G1 X114.801 Y121.34 E6.58061
G0 F6000 X114.759 Y120.578
;TYPE:SKIN
G1 F1200 X117.479 Y120.618 E6.67109
G1 X120.148 Y120.592 E6.75987
G1 X122.806 Y120.503 E6.84832
G1 X125.499 Y120.349 E6.93804
G1 X128.064 Y120.142 E7.02363
G1 X130.712 Y119.871 E7.11216
G1 X133.346 Y119.539 E7.20046
G1 X135.979 Y119.146 E7.28901
G1 X138.655 Y118.685 E7.37932
G1 X139.206 Y118.615 E7.39779
G1 X138.697 Y114.566 E7.53352
G1 X138.201 Y114.629 E7.55015
G1 X135.601 Y115.085 E7.63795
G1 X133.024 Y115.473 E7.72463
G1 X130.526 Y115.793 E7.80839
G1 X127.866 Y116.07 E7.89734
G1 X125.284 Y116.275 E7.98349
G1 X122.693 Y116.424 E8.06981
G1 X120.109 Y116.509 E8.1558
G1 X117.51 Y116.534 E8.24225
G1 X114.884 Y116.499 E8.32959
G1 X112.296 Y116.406 E8.41573
G1 X109.747 Y116.252 E8.50066
G1 X107.165 Y116.037 E8.58684
G1 X104.507 Y115.752 E8.67575
G1 X102.009 Y115.426 E8.75954
G1 X99.441 Y115.03 E8.84596
G1 X96.843 Y114.568 E8.93372
G1 X96.328 Y114.5 E8.951
G1 X95.798 Y118.551 E9.08689
G1 X96.374 Y118.627 E9.10621
G1 X99.009 Y119.09 E9.19519
G1 X101.659 Y119.495 E9.28436
G1 X104.29 Y119.835 E9.37259
G1 X106.884 Y120.107 E9.45934
G1 X109.583 Y120.33 E9.54942
G1 X112.075 Y120.48 E9.63245
G1 X114.759 Y120.578 E9.72178
G0 F6000 X114.75 Y120.836
G0 X109.38 Y120.515
G0 X103.933 Y119.989
G0 X98.678 Y119.236
G0 X95.588 Y118.715
G0 X95.603 Y118.056
G0 X96.056 Y118.117
G1 F1200 X96.36 Y118.422 E9.7361
G0 F6000 X97.045 Y118.541
G1 F1200 X96.121 Y117.617 E9.77957
G0 F6000 X96.187 Y117.117
G1 F1200 X97.731 Y118.661 E9.85219
G0 F6000 X98.417 Y118.782
G1 F1200 X96.252 Y116.617 E9.95403
G0 F6000 X96.317 Y116.116
G1 F1200 X99.101 Y118.9 E10.08498
G0 F6000 X99.769 Y119.002
G1 F1200 X96.383 Y115.616 E10.24424
G0 F6000 X96.449 Y115.116
G1 F1200 X100.437 Y119.105 E10.43185
G0 F6000 X101.105 Y119.207
G1 F1200 X96.641 Y114.743 E10.64182
G0 F6000 X97.319 Y114.855
G1 F1200 X101.77 Y119.306 E10.85118
G0 F6000 X102.419 Y119.39
G1 F1200 X98.007 Y114.977 E11.05874
G0 F6000 X98.695 Y115.1
G1 F1200 X103.069 Y119.474 E11.26447
G0 F6000 X103.719 Y119.558
G1 F1200 X99.383 Y115.222 E11.46843
G0 F6000 X100.052 Y115.326
G1 F1200 X104.366 Y119.64 E11.67134
G0 F6000 X104.998 Y119.706
G1 F1200 X100.721 Y115.429 E11.87252
G0 F6000 X101.389 Y115.532
G1 F1200 X105.631 Y119.773 E12.07203
G0 F6000 X106.263 Y119.839
G1 F1200 X102.056 Y115.633 E12.26989
G0 F6000 X102.707 Y115.718
G1 F1200 X106.895 Y119.906 E12.46688
G0 F6000 X107.512 Y119.957
G1 F1200 X103.357 Y115.802 E12.66232
G0 F6000 X104.008 Y115.887
G1 F1200 X108.129 Y120.008 E12.85616
G0 F6000 X108.745 Y120.059
G1 F1200 X104.654 Y115.968 E13.04859
G0 F6000 X105.288 Y116.036
G1 F1200 X109.363 Y120.111 E13.24026
G0 F6000 X109.969 Y120.152
G1 F1200 X105.921 Y116.104 E13.43067
G0 F6000 X106.556 Y116.172
G1 F1200 X110.571 Y120.188 E13.61954
G0 F6000 X111.173 Y120.224
G1 F1200 X107.188 Y116.239 E13.80699
G0 F6000 X107.805 Y116.29
G1 F1200 X111.774 Y120.259 E13.99368
G0 F6000 X112.369 Y120.288
G1 F1200 X108.422 Y116.342 E14.17931
G0 F6000 X109.039 Y116.393
G1 F1200 X112.956 Y120.31 E14.36355
G0 F6000 X113.543 Y120.331
G1 F1200 X109.656 Y116.444 E14.54638
G0 F6000 X110.26 Y116.483
G1 F1200 X114.131 Y120.353 E14.72844
G0 F6000 X114.718 Y120.375
G1 F1200 X110.862 Y116.519 E14.90981
G0 F6000 X111.464 Y116.555
G1 F1200 X115.293 Y120.384 E15.08992
G0 F6000 X115.867 Y120.392
G1 F1200 X112.065 Y116.591 E15.26873
G0 F6000 X112.659 Y116.618
G1 F1200 X116.442 Y120.401 E15.44667
G0 F6000 X117.016 Y120.41
G1 F1200 X113.245 Y116.64 E15.62402
G0 F6000 X113.832 Y116.661
G1 F1200 X117.587 Y120.416 E15.80065
G0 F6000 X118.148 Y120.411
G1 F1200 X114.419 Y116.681 E15.97607
G0 F6000 X115.003 Y116.7
G1 F1200 X118.708 Y120.405 E16.15034
G0 F6000 X119.269 Y120.4
G1 F1200 X115.577 Y116.708 E16.324
G0 F6000 X116.15 Y116.716
G1 F1200 X119.829 Y120.394 E16.49703
G0 F6000 X120.382 Y120.382
G1 F1200 X116.723 Y116.723 E16.66914
G0 F6000 X117.296 Y116.731
G1 F1200 X120.93 Y120.365 E16.84007
G0 F6000 X121.478 Y120.346
G1 F1200 X117.862 Y116.731 E17.01013
G0 F6000 X118.422 Y116.725
G1 F1200 X122.025 Y120.328 E17.1796
G0 F6000 X122.573 Y120.31
G1 F1200 X118.982 Y116.719 E17.34851
G0 F6000 X119.542 Y116.714
G1 F1200 X123.112 Y120.284 E17.51644
G0 F6000 X123.648 Y120.254
G1 F1200 X120.103 Y116.709 E17.68318
G0 F6000 X120.651 Y116.691
G1 F1200 X124.183 Y120.223 E17.84932
G0 F6000 X124.718 Y120.193
G1 F1200 X121.198 Y116.673 E18.01489
G0 F6000 X121.746 Y116.655
G1 F1200 X125.254 Y120.162 E18.17987
G0 F6000 X125.782 Y120.125
G1 F1200 X122.294 Y116.637 E18.34393
G0 F6000 X122.839 Y116.616
G1 F1200 X126.305 Y120.082 E18.50696
G0 F6000 X126.829 Y120.041
G1 F1200 X123.373 Y116.585 E18.66952
G0 F6000 X123.908 Y116.554
G1 F1200 X127.352 Y119.998 E18.83152
G0 F6000 X127.876 Y119.957
G1 F1200 X124.443 Y116.524 E18.993
G0 F6000 X124.978 Y116.493
G1 F1200 X128.392 Y119.906 E19.15356
G0 F6000 X128.905 Y119.854
G1 F1200 X125.509 Y116.458 E19.31329
G0 F6000 X126.033 Y116.416
G1 F1200 X129.418 Y119.802 E19.47254
G0 F6000 X129.932 Y119.749
G1 F1200 X126.557 Y116.374 E19.63129
G0 F6000 X127.081 Y116.333
G1 F1200 X130.444 Y119.696 E19.78947
G0 F6000 X130.951 Y119.638
G1 F1200 X127.605 Y116.292 E19.94686
G0 F6000 X128.124 Y116.245
G1 F1200 X131.454 Y119.575 E20.10349
G0 F6000 X131.957 Y119.512
G1 F1200 X128.636 Y116.191 E20.2597
G0 F6000 X129.149 Y116.138
G1 F1200 X132.459 Y119.448 E20.41539
G0 F6000 X132.962 Y119.385
G1 F1200 X129.661 Y116.085 E20.57064
G0 F6000 X130.174 Y116.031
G1 F1200 X133.461 Y119.319 E20.72527
G0 F6000 X133.953 Y119.245
G1 F1200 X130.683 Y115.975 E20.87908
G0 F6000 X131.184 Y115.911
G1 F1200 X134.445 Y119.172 E21.03247
G0 F6000 X134.938 Y119.099
G1 F1200 X131.685 Y115.846 E21.18548
G0 F6000 X132.187 Y115.783
G1 F1200 X135.43 Y119.025 E21.338
G0 F6000 X135.922 Y118.952
G1 F1200 X132.689 Y115.718 E21.49009
G0 F6000 X133.187 Y115.651
G1 F1200 X136.405 Y118.868 E21.64143
G0 F6000 X136.888 Y118.786
G1 F1200 X133.679 Y115.577 E21.79238
G0 F6000 X134.17 Y115.503
G1 F1200 X137.37 Y118.702 E21.94287
G0 F6000 X137.852 Y118.619
G1 F1200 X134.662 Y115.428 E22.09294
G0 F6000 X135.153 Y115.354
G1 F1200 X138.335 Y118.536 E22.24261
G0 F6000 X138.825 Y118.46
G1 F1200 X135.645 Y115.28 E22.39219
G0 F6000 X136.126 Y115.196
G1 F1200 X138.925 Y117.994 E22.52382
G0 F6000 X138.844 Y117.348
G1 F1200 X136.607 Y115.111 E22.62904
G0 F6000 X137.088 Y115.027
G1 F1200 X138.763 Y116.701 E22.70781
G0 F6000 X138.682 Y116.055
G1 F1200 X137.57 Y114.943 E22.76011
G0 F6000 X138.051 Y114.858
G1 F1200 X138.601 Y115.408 E22.78598
;MESH:NONMESH
G0 F300 X138.601 Y115.408 Z0.4
G0 F6000 X139.059 Y115.352
G0 X139.415 Y118.779
G0 X133.352 Y119.739
G0 X128.062 Y120.343
G0 X122.793 Y120.703
G0 X119.759 Y120.766
G0 X114.761 Y120.838
G0 X114.755 Y120.94
;TIME_ELAPSED:45.874098
;LAYER:1
M106 S85
;TYPE:WALL-INNER
;MESH:Body1.stl
G1 F1350 X117.494 Y120.978 E22.87709
G1 X120.239 Y120.949 E22.9684
G1 X122.798 Y120.864 E23.05356
G1 X125.43 Y120.714 E23.14124
G1 X128.089 Y120.503 E23.22995
G1 X130.701 Y120.235 E23.31729
G1 X133.399 Y119.895 E23.40773
G1 X136.036 Y119.502 E23.49641
G1 X138.716 Y119.041 E23.58685
G1 X139.607 Y118.929 E23.61672
G1 X139.01 Y114.164 E23.77645
G1 X138.115 Y114.278 E23.80645
G1 X135.642 Y114.713 E23.88997
G1 X133.093 Y115.098 E23.97571
G1 X130.311 Y115.453 E24.06899
G1 X127.754 Y115.717 E24.15449
G1 X125.195 Y115.92 E24.23987
G1 X122.631 Y116.065 E24.32528
G1 X120.066 Y116.15 E24.41064
G1 X117.474 Y116.174 E24.49686
G1 X114.903 Y116.14 E24.58238
G1 X112.372 Y116.048 E24.66661
G1 X109.809 Y115.895 E24.75201
G1 X107.251 Y115.683 E24.83738
G1 X104.697 Y115.412 E24.92281
G1 X102.146 Y115.081 E25.00836
G1 X99.37 Y114.652 E25.10179
G1 X96.893 Y114.211 E25.18547
G1 X96.017 Y114.097 E25.21485
G1 X95.395 Y118.863 E25.37471
G1 X96.315 Y118.984 E25.40558
G1 X98.952 Y119.447 E25.49463
G1 X101.613 Y119.852 E25.58415
G1 X104.254 Y120.192 E25.67271
G1 X106.9 Y120.471 E25.76121
G1 X109.496 Y120.686 E25.84785
G1 X112.31 Y120.852 E25.9416
G1 X114.755 Y120.94 E26.02298
G0 F7500 X114.745 Y121.34
;TYPE:WALL-OUTER
G1 F1350 X117.498 Y121.378 E26.11455
G1 X120.252 Y121.349 E26.20616
G1 X122.874 Y121.261 E26.29341
G1 X125.462 Y121.113 E26.37963
G1 X128.13 Y120.901 E26.46865
G1 X130.805 Y120.625 E26.55809
G1 X133.396 Y120.3 E26.64494
G1 X136.042 Y119.907 E26.73392
G1 X138.766 Y119.438 E26.82585
G1 X140.054 Y119.276 E26.86903
G1 X139.357 Y113.717 E27.05537
G1 X138.075 Y113.879 E27.09835
G1 X135.582 Y114.317 E27.18253
G1 X133.043 Y114.702 E27.26795
G1 X130.27 Y115.055 E27.36092
G1 X127.722 Y115.319 E27.44612
G1 X125.173 Y115.521 E27.53117
G1 X122.618 Y115.665 E27.61628
G1 X120.062 Y115.75 E27.70134
G1 X117.479 Y115.774 E27.78726
G1 X114.918 Y115.74 E27.87244
G1 X112.396 Y115.648 E27.95638
G1 X109.842 Y115.496 E28.04148
G1 X107.293 Y115.285 E28.12655
G1 X104.748 Y115.015 E28.21167
G1 X102.206 Y114.685 E28.29693
G1 X99.44 Y114.258 E28.39001
G1 X96.954 Y113.815 E28.474
G1 X95.671 Y113.648 E28.51703
G1 X94.947 Y119.208 E28.70352
G1 X96.246 Y119.378 E28.74709
G1 X98.887 Y119.842 E28.83628
G1 X101.562 Y120.249 E28.92627
G1 X104.212 Y120.59 E29.01514
G1 X106.837 Y120.867 E29.10293
G1 X109.499 Y121.087 E29.19177
G1 X112.296 Y121.252 E29.28496
G1 X114.745 Y121.34 E29.36647
G0 F7500 X114.762 Y120.58
;TYPE:SKIN
G1 F1350 X117.508 Y120.618 E29.45781
G1 X120.129 Y120.592 E29.54499
G1 X122.894 Y120.499 E29.63701
G1 X125.376 Y120.357 E29.71969
G1 X128.025 Y120.146 E29.80808
G1 X130.687 Y119.874 E29.89708
G1 X133.346 Y119.54 E29.98621
G1 X135.95 Y119.15 E30.07379
G1 X138.668 Y118.683 E30.16551
G1 X139.206 Y118.615 E30.18355
G1 X138.696 Y114.566 E30.31928
G1 X138.193 Y114.63 E30.33615
G1 X135.719 Y115.066 E30.4197
G1 X133.145 Y115.455 E30.50629
G1 X130.36 Y115.812 E30.59967
G1 X127.8 Y116.075 E30.68527
G1 X125.234 Y116.279 E30.77088
G1 X122.661 Y116.424 E30.8566
G1 X120.093 Y116.51 E30.94206
G1 X117.469 Y116.534 E31.02933
G1 X114.888 Y116.5 E31.11519
G1 X112.368 Y116.408 E31.19906
G1 X109.795 Y116.255 E31.28479
G1 X107.258 Y116.046 E31.36945
G1 X104.716 Y115.777 E31.45447
G1 X102.177 Y115.449 E31.53962
G1 X99.325 Y115.01 E31.6356
G1 X96.823 Y114.565 E31.72012
G1 X96.329 Y114.5 E31.73669
G1 X95.798 Y118.551 E31.87258
G1 X96.38 Y118.629 E31.89211
G1 X99.03 Y119.094 E31.9816
G1 X101.66 Y119.495 E32.07008
G1 X104.27 Y119.831 E32.15761
G1 X106.877 Y120.106 E32.2448
G1 X109.519 Y120.325 E32.33297
G1 X112.275 Y120.49 E32.4248
G1 X114.762 Y120.58 E32.50757
G0 F7500 X114.732 Y120.838
G0 X109.428 Y120.518
G0 X104.107 Y120.012
G0 X98.56 Y119.215
G0 X95.588 Y118.715
G0 X96.166 Y114.29
G0 X96.861 Y114.308
G0 X96.802 Y114.763
G1 F1350 X96.451 Y115.114 E32.52408
G0 F7500 X96.365 Y115.766
G1 F1350 X97.283 Y114.848 E32.56726
G0 F7500 X97.763 Y114.934
G1 F1350 X96.28 Y116.417 E32.63702
G0 F7500 X96.194 Y117.068
G1 F1350 X98.243 Y115.02 E32.73338
G0 F7500 X98.723 Y115.105
G1 F1350 X96.109 Y117.719 E32.85633
G0 F7500 X96.023 Y118.371
G1 F1350 X99.204 Y115.19 E33.00595
G0 F7500 X99.692 Y115.268
G1 F1350 X96.51 Y118.449 E33.1556
G0 F7500 X96.992 Y118.533
G1 F1350 X100.182 Y115.343 E33.30565
G0 F7500 X100.672 Y115.418
G1 F1350 X97.473 Y118.617 E33.45612
G0 F7500 X97.954 Y118.702
G1 F1350 X101.162 Y115.494 E33.60702
G0 F7500 X101.653 Y115.569
G1 F1350 X98.436 Y118.786 E33.75833
G0 F7500 X98.917 Y118.871
G1 F1350 X102.143 Y115.645 E33.91007
G0 F7500 X102.644 Y115.71
G1 F1350 X99.405 Y118.948 E34.0624
G0 F7500 X99.896 Y119.023
G1 F1350 X103.145 Y115.774 E34.21523
G0 F7500 X103.646 Y115.839
G1 F1350 X100.387 Y119.098 E34.36852
G0 F7500 X100.877 Y119.173
G1 F1350 X104.146 Y115.904 E34.52228
G0 F7500 X104.648 Y115.969
G1 F1350 X101.368 Y119.248 E34.67654
G0 F7500 X101.863 Y119.319
G1 F1350 X105.158 Y116.024 E34.83153
G0 F7500 X105.67 Y116.078
G1 F1350 X102.365 Y119.383 E34.98699
G0 F7500 X102.865 Y119.448
G1 F1350 X106.181 Y116.132 E35.14296
G0 F7500 X106.693 Y116.186
G1 F1350 X103.366 Y119.513 E35.29945
G0 F7500 X103.868 Y119.577
G1 F1350 X107.205 Y116.24 E35.45641
G0 F7500 X107.727 Y116.284
G1 F1350 X104.372 Y119.638 E35.6142
G0 F7500 X104.883 Y119.693
G1 F1350 X108.249 Y116.327 E35.77253
G0 F7500 X108.772 Y116.369
G1 F1350 X105.394 Y119.747 E35.93142
G0 F7500 X105.906 Y119.802
G1 F1350 X109.295 Y116.413 E36.09082
G0 F7500 X109.818 Y116.455
G1 F1350 X106.417 Y119.856 E36.2508
G0 F7500 X106.93 Y119.909
G1 F1350 X110.352 Y116.487 E36.41176
G0 F7500 X110.886 Y116.519
G1 F1350 X107.453 Y119.952 E36.57324
G0 F7500 X107.975 Y119.996
G1 F1350 X111.42 Y116.55 E36.7353
G0 F7500 X111.954 Y116.582
G1 F1350 X108.497 Y120.039 E36.89791
G0 F7500 X109.019 Y120.082
G1 F1350 X112.49 Y116.611 E37.06117
G0 F7500 X113.036 Y116.631
G1 F1350 X109.543 Y120.124 E37.22547
G0 F7500 X110.076 Y120.157
G1 F1350 X113.583 Y116.65 E37.39043
G0 F7500 X114.129 Y116.67
G1 F1350 X110.61 Y120.189 E37.55595
G0 F7500 X111.144 Y120.22
G1 F1350 X114.675 Y116.69 E37.72202
G0 F7500 X115.227 Y116.703
G1 F1350 X111.677 Y120.253 E37.889
G0 F7500 X112.211 Y120.285
