;FLAVOR:Marlin
;TIME:3418
;Filament used: 2.06805m
;Layer height: 0.2
;MINX:86.2
;MINY:102.7
;MINZ:0.2
;MAXX:148.8
;MAXY:132.3
;MAXZ:22
;Generated with Cura_SteamEngine main
M140 S50
M105
M190 S50
M104 S210
M105
M109 S210
M82 ;absolute extrusion mode
; Ender 3 Custom Start G-code
G92 E0 ; Reset Extruder
G28 ; Home all axes
G1 Z2.0 F3000 ; Move Z Axis up little to prevent scratching of Heat Bed
G1 X0.1 Y20 Z0.3 F5000.0 ; Move to start position
G1 X0.1 Y200.0 Z0.3 F1500.0 E15 ; Draw the first line
G1 X0.4 Y200.0 Z0.3 F5000.0 ; Move to side a little
G1 X0.4 Y20 Z0.3 F1500.0 E30 ; Draw the second line
G92 E0 ; Reset Extruder
G1 Z2.0 F3000 ; Move Z Axis up little to prevent scratching of Heat Bed
G1 X5 Y20 Z0.3 F5000.0 ; Move over to prevent blob squish
G92 E0
G92 E0
G1 F2700 E-5
;LAYER_COUNT:110
;LAYER:0
M107
;MESH:Body1.stl
G0 F6000 X86.6 Y131.9 Z0.2
;TYPE:WALL-INNER
G1 F2700 E0
G1 F1200 X148.4 Y131.9 E2.05548
G1 X148.4 Y104.529 E2.96584
G1 X148.37 Y104.231 E2.9758
G1 X148.289 Y103.965 E2.98505
G1 X148.16 Y103.724 E2.99414
G1 X147.986 Y103.511 E3.00329
G1 X147.776 Y103.34 E3.0123
G1 X147.535 Y103.211 E3.02139
G1 X147.269 Y103.13 E3.03064
G1 X146.969 Y103.1 E3.04066
G1 X133.45 Y103.1 E3.49031
G1 X133.447 Y124.563 E4.20417
G1 X133.38 Y124.783 E4.21182
G1 X133.264 Y124.935 E4.21818
G1 X133.081 Y125.054 E4.22544
G1 X132.927 Y125.1 E4.23078
G1 X102.066 Y125.1 E5.25723
G1 X101.736 Y124.935 E5.2695
G1 X101.62 Y124.783 E5.27586
G1 X101.553 Y124.563 E5.28351
G1 X101.55 Y103.1 E5.99737
G1 X88.031 Y103.1 E6.44701
G1 X87.731 Y103.13 E6.45704
G1 X87.466 Y103.211 E6.46626
G1 X87.224 Y103.34 E6.47538
G1 X87.011 Y103.514 E6.48452
G1 X86.84 Y103.723 E6.49351
G1 X86.71 Y103.968 E6.50273
G1 X86.63 Y104.23 E6.51184
G1 X86.6 Y104.531 E6.5219
G1 X86.6 Y104.603 E6.5243
G1 X86.6 Y131.9 E7.4322
G0 F6000 X86.2 Y132.3
;TYPE:WALL-OUTER
G1 F1200 X148.8 Y132.3 E9.51428
G1 X148.8 Y104.509 E10.43862
G1 X148.764 Y104.152 E10.45055
G1 X148.66 Y103.811 E10.46241
G1 X148.494 Y103.501 E10.4741
G1 X148.27 Y103.227 E10.48588
G1 X147.999 Y103.006 E10.49751
G1 X147.689 Y102.84 E10.5092
G1 X147.348 Y102.736 E10.52106
G1 X146.989 Y102.7 E10.53306
G1 X133.05 Y102.7 E10.99667
G1 X133.046 Y124.544 E11.72321
G1 X132.988 Y124.645 E11.72708
G1 X132.885 Y124.698 E11.73093
G1 X102.11 Y124.697 E12.75451
G1 X102.039 Y124.667 E12.75708
G1 X101.954 Y124.544 E12.76205
G1 X101.95 Y102.7 E13.48859
G1 X88.011 Y102.7 E13.9522
G1 X87.652 Y102.736 E13.9642
G1 X87.311 Y102.84 E13.97606
G1 X87.001 Y103.006 E13.98775
G1 X86.727 Y103.23 E13.99952
G1 X86.506 Y103.501 E14.01115
G1 X86.338 Y103.814 E14.02297
G1 X86.236 Y104.152 E14.03471
G1 X86.2 Y104.511 E14.04671
G1 X86.2 Y104.603 E14.04977
G1 X86.2 Y132.3 E14.97098
G0 F6000 X86.47 Y132.03
G0 X86.7 Y131.54
G0 X86.96 Y131.54
;TYPE:SKIN
G1 F1200 X148.04 Y131.54 E17.00251
G1 X148.04 Y104.547 E17.9003
G1 X147.955 Y104.111 E17.91507
G1 X147.728 Y103.77 E17.9287
G1 X147.39 Y103.545 E17.9422
G1 X146.95 Y103.46 E17.95711
G1 X133.81 Y103.46 E18.39415
G1 X133.805 Y124.609 E19.09756
G1 X133.703 Y124.942 E19.10915
G1 X133.518 Y125.198 E19.11965
G1 X133.255 Y125.369 E19.13009
G1 X132.991 Y125.457 E19.13934
G1 X102.012 Y125.46 E20.16971
G1 X101.773 Y125.386 E20.17803
G1 X101.481 Y125.197 E20.1896
G1 X101.297 Y124.942 E20.20006
G1 X101.195 Y124.609 E20.21164
G1 X101.19 Y103.46 E20.91506
G1 X88.05 Y103.46 E21.3521
G1 X87.611 Y103.544 E21.36696
G1 X87.272 Y103.772 E21.38055
G1 X87.042 Y104.117 E21.39434
G1 X86.96 Y104.55 E21.409
G1 X86.96 Y131.54 E22.30669
G0 F6000 X87.78 Y131.338
G1 F1200 X87.16 Y130.717 E22.33588
G0 F6000 X87.16 Y130.152
G1 F1200 X88.346 Y131.338 E22.39166
G0 F6000 X88.912 Y131.338
G1 F1200 X87.16 Y129.586 E22.47407
G0 F6000 X87.16 Y129.02
G1 F1200 X89.477 Y131.338 E22.58308
G0 F6000 X90.043 Y131.338
G1 F1200 X87.16 Y128.455 E22.71869
G0 F6000 X87.16 Y127.889
G1 F1200 X90.609 Y131.338 E22.88092
G0 F6000 X91.175 Y131.338
G1 F1200 X87.16 Y127.323 E23.06977
G0 F6000 X87.16 Y126.758
G1 F1200 X91.74 Y131.338 E23.2852
G0 F6000 X92.306 Y131.338
G1 F1200 X87.16 Y126.192 E23.52725
G0 F6000 X87.16 Y125.626
G1 F1200 X92.872 Y131.338 E23.79593
G0 F6000 X93.437 Y131.338
G1 F1200 X87.16 Y125.061 E24.09118
G0 F6000 X87.16 Y124.495
G1 F1200 X94.003 Y131.338 E24.41305
G0 F6000 X94.569 Y131.338
G1 F1200 X87.16 Y123.929 E24.76155
G0 F6000 X87.16 Y123.363
G1 F1200 X95.134 Y131.338 E25.13664
G0 F6000 X95.7 Y131.338
G1 F1200 X87.16 Y122.798 E25.53834
G0 F6000 X87.16 Y122.232
G1 F1200 X96.266 Y131.338 E25.96666
G0 F6000 X96.831 Y131.338
G1 F1200 X87.16 Y121.666 E26.42158
G0 F6000 X87.16 Y121.101
G1 F1200 X97.397 Y131.338 E26.90309
G0 F6000 X97.963 Y131.338
G1 F1200 X87.16 Y120.535 E27.41123
G0 F6000 X87.16 Y119.969
G1 F1200 X98.528 Y131.338 E27.94597
G0 F6000 X99.094 Y131.338
G1 F1200 X87.16 Y119.404 E28.50731
G0 F6000 X87.16 Y118.838
G1 F1200 X99.66 Y131.338 E29.09527
G0 F6000 X100.226 Y131.338
G1 F1200 X87.16 Y118.272 E29.70986
G0 F6000 X87.16 Y117.707
G1 F1200 X100.791 Y131.338 E30.35102
G0 F6000 X101.357 Y131.338
G1 F1200 X87.16 Y117.141 E31.0188
G0 F6000 X87.16 Y116.575
G1 F1200 X101.923 Y131.338 E31.71321
G0 F6000 X102.488 Y131.338
G1 F1200 X87.16 Y116.01 E32.43419
G0 F6000 X87.16 Y115.444
G1 F1200 X103.054 Y131.338 E33.18179
G0 F6000 X103.62 Y131.338
G1 F1200 X87.16 Y114.878 E33.95602
G0 F6000 X87.16 Y114.313
G1 F1200 X104.185 Y131.338 E34.75683
G0 F6000 X104.751 Y131.338
G1 F1200 X87.16 Y113.747 E35.58425
G0 F6000 X87.16 Y113.181
G1 F1200 X105.317 Y131.338 E36.4383
G0 F6000 X105.882 Y131.338
G1 F1200 X87.16 Y112.615 E37.31895
G0 F6000 X87.16 Y112.05
G1 F1200 X106.448 Y131.338 E38.2262
G0 F6000 X107.014 Y131.338
G1 F1200 X87.16 Y111.484 E39.16007
G0 F6000 X87.16 Y110.918
G1 F1200 X101.046 Y124.805 E39.81325
G0 F6000 X100.996 Y124.189
G1 F1200 X87.16 Y110.353 E40.46405
G0 F6000 X87.16 Y109.787
G1 F1200 X100.996 Y123.624 E41.11488
G0 F6000 X100.996 Y123.058
G1 F1200 X87.16 Y109.221 E41.76571
G0 F6000 X87.16 Y108.656
G1 F1200 X100.996 Y122.492 E42.41651
G0 F6000 X100.996 Y121.926
G1 F1200 X87.16 Y108.09 E43.06731
G0 F6000 X87.16 Y107.524
G1 F1200 X100.996 Y121.36 E43.71811
G0 F6000 X100.996 Y120.795
G1 F1200 X87.16 Y106.959 E44.36892
G0 F6000 X87.16 Y106.393
G1 F1200 X100.996 Y120.229 E45.01972
G0 F6000 X100.995 Y119.662
G1 F1200 X87.16 Y105.827 E45.67048
G0 F6000 X87.16 Y105.262
G1 F1200 X100.995 Y119.097 E46.32123
G0 F6000 X100.995 Y118.531
G1 F1200 X87.16 Y104.696 E46.97199
G0 F6000 X87.227 Y104.197
G1 F1200 X100.995 Y117.965 E47.61959
G0 F6000 X100.994 Y117.399
G1 F1200 X87.473 Y103.878 E48.25558
G0 F6000 X87.858 Y103.697
G1 F1200 X100.994 Y116.833 E48.87346
G0 F6000 X100.994 Y116.268
G1 F1200 X88.385 Y103.659 E49.46655
G0 F6000 X88.951 Y103.659
G1 F1200 X100.994 Y115.702 E50.03301
G0 F6000 X100.993 Y115.136
G1 F1200 X89.516 Y103.659 E50.57285
G0 F6000 X90.082 Y103.659
G1 F1200 X100.993 Y114.57 E51.08607
G0 F6000 X100.993 Y114.004
G1 F1200 X90.648 Y103.659 E51.57267
G0 F6000 X91.213 Y103.659
G1 F1200 X100.993 Y113.439 E52.03269
G0 F6000 X100.993 Y112.872
G1 F1200 X91.779 Y103.659 E52.46607
G0 F6000 X92.345 Y103.659
G1 F1200 X100.993 Y112.306 E52.87282
G0 F6000 X100.993 Y111.741
G1 F1200 X92.911 Y103.659 E53.25297
G0 F6000 X93.476 Y103.659
G1 F1200 X100.993 Y111.175 E53.60652
G0 F6000 X100.992 Y110.609
G1 F1200 X94.042 Y103.659 E53.93343
G0 F6000 X94.608 Y103.659
G1 F1200 X100.992 Y110.043 E54.23372
G0 F6000 X100.992 Y109.477
G1 F1200 X95.173 Y103.659 E54.5074
G0 F6000 X95.739 Y103.659
G1 F1200 X100.992 Y108.912 E54.75448
G0 F6000 X100.992 Y108.346
G1 F1200 X96.305 Y103.659 E54.97495
G0 F6000 X96.87 Y103.659
G1 F1200 X100.991 Y107.78 E55.16879
G0 F6000 X100.991 Y107.214
G1 F1200 X97.436 Y103.659 E55.336
G0 F6000 X98.002 Y103.659
G1 F1200 X100.991 Y106.648 E55.4766
G0 F6000 X100.991 Y106.082
G1 F1200 X98.567 Y103.659 E55.59059
G0 F6000 X99.133 Y103.659
G1 F1200 X100.991 Y105.516 E55.67796
G0 F6000 X100.991 Y104.95
G1 F1200 X99.699 Y103.659 E55.73871
G0 F6000 X100.264 Y103.659
G1 F1200 X100.991 Y104.385 E55.77288
G0 F6000 X100.991 Y103.819
G1 F1200 X100.83 Y103.659 E55.78043
G0 F6000 X100.83 Y103.2
G0 X101.378 Y103.272
G0 X101.722 Y124.928
G0 X101.993 Y125.181
G0 X101.858 Y125.617
G1 F1200 X107.579 Y131.338 E56.04953
G0 F6000 X108.145 Y131.338
G1 F1200 X102.466 Y125.659 E56.31665
G0 F6000 X103.032 Y125.659
G1 F1200 X108.711 Y131.338 E56.58377
G0 F6000 X109.276 Y131.338
G1 F1200 X103.598 Y125.659 E56.85087
G0 F6000 X104.163 Y125.659
G1 F1200 X109.842 Y131.338 E57.118
G0 F6000 X110.408 Y131.338
G1 F1200 X104.729 Y125.659 E57.38512
G0 F6000 X105.295 Y125.659
G1 F1200 X110.974 Y131.338 E57.65224
G0 F6000 X111.539 Y131.338
G1 F1200 X105.86 Y125.659 E57.91936
G0 F6000 X106.426 Y125.659
G1 F1200 X112.105 Y131.338 E58.18649
G0 F6000 X112.671 Y131.338
G1 F1200 X106.992 Y125.659 E58.45361
G0 F6000 X107.558 Y125.659
G1 F1200 X113.236 Y131.338 E58.72071
G0 F6000 X113.802 Y131.338
G1 F1200 X108.123 Y125.659 E58.98783
G0 F6000 X108.689 Y125.659
G1 F1200 X114.368 Y131.338 E59.25496
G0 F6000 X114.933 Y131.338
G1 F1200 X109.255 Y125.659 E59.52205
G0 F6000 X109.82 Y125.659
G1 F1200 X115.499 Y131.338 E59.78918
G0 F6000 X116.065 Y131.338
G1 F1200 X110.386 Y125.659 E60.0563
G0 F6000 X110.952 Y125.659
G1 F1200 X116.63 Y131.338 E60.3234
G0 F6000 X117.196 Y131.338
G1 F1200 X111.517 Y125.659 E60.59052
G0 F6000 X112.083 Y125.659
G1 F1200 X117.762 Y131.339 E60.85767
G0 F6000 X118.328 Y131.339
G1 F1200 X112.649 Y125.659 E61.12481
G0 F6000 X113.214 Y125.659
G1 F1200 X118.894 Y131.339 E61.39198
G0 F6000 X119.46 Y131.339
G1 F1200 X113.78 Y125.659 E61.65915
G0 F6000 X114.346 Y125.659
G1 F1200 X120.025 Y131.339 E61.9263
G0 F6000 X120.591 Y131.339
G1 F1200 X114.911 Y125.659 E62.19347
G0 F6000 X115.477 Y125.659
G1 F1200 X121.157 Y131.339 E62.46064
G0 F6000 X121.722 Y131.339
G1 F1200 X116.043 Y125.659 E62.72779
G0 F6000 X116.608 Y125.659
G1 F1200 X122.288 Y131.339 E62.99496
G0 F6000 X122.854 Y131.339
G1 F1200 X117.174 Y125.659 E63.26213
G0 F6000 X117.74 Y125.659
G1 F1200 X123.419 Y131.339 E63.52927
G0 F6000 X123.985 Y131.339
G1 F1200 X118.306 Y125.659 E63.79642
G0 F6000 X118.871 Y125.659
G1 F1200 X124.551 Y131.339 E64.06359
G0 F6000 X125.116 Y131.339
G1 F1200 X119.437 Y125.659 E64.33073
G0 F6000 X120.003 Y125.659
G1 F1200 X125.682 Y131.339 E64.59788
G0 F6000 X126.248 Y131.339
G1 F1200 X120.568 Y125.659 E64.86505
G0 F6000 X121.134 Y125.659
G1 F1200 X126.813 Y131.339 E65.1322
G0 F6000 X127.379 Y131.339
G1 F1200 X121.7 Y125.659 E65.39934
G0 F6000 X122.265 Y125.659
G1 F1200 X127.945 Y131.339 E65.66651
G0 F6000 X128.511 Y131.339
G1 F1200 X122.831 Y125.659 E65.93368
G0 F6000 X123.397 Y125.659
G1 F1200 X129.076 Y131.339 E66.20083
G0 F6000 X129.642 Y131.339
G1 F1200 X123.962 Y125.659 E66.468
G0 F6000 X124.528 Y125.659
G1 F1200 X130.208 Y131.339 E66.73517
G0 F6000 X130.773 Y131.339
G1 F1200 X125.094 Y125.659 E67.00231
G0 F6000 X125.659 Y125.659
G1 F1200 X131.339 Y131.339 E67.26948
G0 F6000 X131.905 Y131.339
G1 F1200 X126.225 Y125.659 E67.53665
G0 F6000 X126.791 Y125.659
G1 F1200 X132.47 Y131.339 E67.8038
G0 F6000 X133.036 Y131.339
G1 F1200 X127.357 Y125.659 E68.07095
G0 F6000 X127.922 Y125.659
G1 F1200 X133.602 Y131.339 E68.33812
G0 F6000 X134.167 Y131.339
G1 F1200 X128.488 Y125.659 E68.60526
G0 F6000 X129.054 Y125.659
G1 F1200 X134.733 Y131.339 E68.87241
G0 F6000 X135.299 Y131.339
G1 F1200 X129.619 Y125.659 E69.13958
G0 F6000 X130.185 Y125.659
G1 F1200 X135.864 Y131.339 E69.40673
G0 F6000 X136.43 Y131.339
G1 F1200 X130.751 Y125.659 E69.67387
G0 F6000 X131.316 Y125.659
G1 F1200 X136.996 Y131.339 E69.94104
G0 F6000 X137.561 Y131.339
G1 F1200 X131.882 Y125.659 E70.20819
G0 F6000 X132.448 Y125.659
G1 F1200 X138.127 Y131.339 E70.47533
G0 F6000 X138.693 Y131.339
G1 F1200 X133.012 Y125.658 E70.74255
G0 F6000 X133.419 Y125.5
G1 F1200 X139.259 Y131.339 E71.01722
G0 F6000 X139.824 Y131.339
G1 F1200 X133.727 Y125.242 E71.30401
G0 F6000 X133.93 Y124.88
G1 F1200 X140.39 Y131.339 E71.60784
G0 F6000 X140.956 Y131.339
G1 F1200 X134.002 Y124.385 E71.93494
G0 F6000 X134.002 Y123.82
G1 F1200 X141.521 Y131.339 E72.28861
G0 F6000 X142.087 Y131.339
G1 F1200 X134.002 Y123.254 E72.6689
G0 F6000 X134.002 Y122.688
G1 F1200 X142.653 Y131.339 E73.07582
G0 F6000 X143.218 Y131.339
G1 F1200 X134.003 Y122.123 E73.50929
G0 F6000 X134.003 Y121.558
G1 F1200 X143.784 Y131.339 E73.96935
G0 F6000 X144.35 Y131.339
G1 F1200 X134.003 Y120.992 E74.45605
G0 F6000 X134.003 Y120.427
G1 F1200 X144.915 Y131.339 E74.96931
G0 F6000 X145.481 Y131.339
G1 F1200 X134.003 Y119.861 E75.5092
G0 F6000 X134.003 Y119.295
G1 F1200 X146.047 Y131.339 E76.07572
G0 F6000 X146.612 Y131.339
G1 F1200 X134.003 Y118.73 E76.6688
G0 F6000 X134.004 Y118.165
G1 F1200 X147.178 Y131.339 E77.28847
G0 F6000 X147.744 Y131.339
G1 F1200 X134.004 Y117.599 E77.93476
G0 F6000 X134.004 Y117.033
G1 F1200 X147.839 Y130.869 E78.58554
G0 F6000 X147.839 Y130.303
G1 F1200 X134.004 Y116.468 E79.23629
G0 F6000 X134.005 Y115.903
G1 F1200 X147.839 Y129.737 E79.887
G0 F6000 X147.839 Y129.172
G1 F1200 X134.005 Y115.337 E80.53773
G0 F6000 X134.005 Y114.771
G1 F1200 X147.839 Y128.606 E81.18847
G0 F6000 X147.839 Y128.04
G1 F1200 X134.005 Y114.206 E81.83917
G0 F6000 X134.005 Y113.641
G1 F1200 X147.839 Y127.475 E82.48988
G0 F6000 X147.839 Y126.909
G1 F1200 X134.005 Y113.075 E83.14059
G0 F6000 X134.005 Y112.509
G1 F1200 X147.839 Y126.343 E83.7913
G0 F6000 X147.839 Y125.778
G1 F1200 X134.006 Y111.944 E84.44199
G0 F6000 X134.006 Y111.379
G1 F1200 X147.839 Y125.212 E85.09265
G0 F6000 X147.839 Y124.646
G1 F1200 X134.006 Y110.813 E85.74331
G0 F6000 X134.006 Y110.247
G1 F1200 X147.839 Y124.08 E86.39397
G0 F6000 X147.839 Y123.515
G1 F1200 X134.007 Y109.682 E87.04461
G0 F6000 X134.007 Y109.117
G1 F1200 X147.839 Y122.949 E87.69523
G0 F6000 X147.839 Y122.383
G1 F1200 X134.007 Y108.551 E88.34584
G0 F6000 X134.007 Y107.985
G1 F1200 X147.839 Y121.818 E88.99648
G0 F6000 X147.839 Y121.252
G1 F1200 X134.008 Y107.42 E89.64707
G0 F6000 X134.008 Y106.855
G1 F1200 X147.839 Y120.686 E90.29764
G0 F6000 X147.839 Y120.121
G1 F1200 X134.008 Y106.289 E90.94823
G0 F6000 X134.008 Y105.724
G1 F1200 X147.839 Y119.555 E91.5988
G0 F6000 X147.839 Y118.989
G1 F1200 X134.008 Y105.158 E92.24937
G0 F6000 X134.008 Y104.593
G1 F1200 X147.839 Y118.424 E92.89993
G0 F6000 X147.839 Y117.858
G1 F1200 X134.008 Y104.027 E93.5505
G0 F6000 X134.207 Y103.66
G1 F1200 X147.839 Y117.292 E94.19171
G0 F6000 X147.839 Y116.727
G1 F1200 X134.773 Y103.66 E94.80632
G0 F6000 X135.338 Y103.66
G1 F1200 X147.839 Y116.161 E95.39433
G0 F6000 X147.839 Y115.595
G1 F1200 X135.904 Y103.66 E95.95571
G0 F6000 X136.47 Y103.66
G1 F1200 X147.839 Y115.03 E96.4905
G0 F6000 X147.839 Y114.464
G1 F1200 X137.035 Y103.66 E96.99868
G0 F6000 X137.601 Y103.66
G1 F1200 X147.839 Y113.898 E97.48025
G0 F6000 X147.839 Y113.332
G1 F1200 X138.167 Y103.66 E97.93519
G0 F6000 X138.732 Y103.66
G1 F1200 X147.839 Y112.767 E98.36356
G0 F6000 X147.839 Y112.201
G1 F1200 X139.298 Y103.66 E98.7653
G0 F6000 X139.864 Y103.66
G1 F1200 X147.839 Y111.635 E99.14042
G0 F6000 X147.839 Y111.07
G1 F1200 X140.429 Y103.66 E99.48896
G0 F6000 X140.995 Y103.66
G1 F1200 X147.839 Y110.504 E99.81088
G0 F6000 X147.839 Y109.938
G1 F1200 X141.561 Y103.66 E100.10618
G0 F6000 X142.127 Y103.66
G1 F1200 X147.839 Y109.373 E100.37488
G0 F6000 X147.839 Y108.807
G1 F1200 X142.692 Y103.66 E100.61698
G0 F6000 X143.258 Y103.66
G1 F1200 X147.839 Y108.241 E100.83245
G0 F6000 X147.839 Y107.676
G1 F1200 X143.824 Y103.66 E101.02133
G0 F6000 X144.389 Y103.66
G1 F1200 X147.839 Y107.11 E101.18361
G0 F6000 X147.839 Y106.544
G1 F1200 X144.955 Y103.66 E101.31926
G0 F6000 X145.521 Y103.66
G1 F1200 X147.839 Y105.979 E101.42832
G0 F6000 X147.839 Y105.413
G1 F1200 X146.086 Y103.66 E101.51077
G0 F6000 X146.652 Y103.66
G1 F1200 X147.839 Y104.847 E101.56661
G0 F6000 X147.775 Y104.217
G1 F1200 X147.282 Y103.724 E101.5898
G1 F2700 E96.5898
;MESH:NONMESH
G0 F300 X147.282 Y103.724 Z0.4
G0 F6000 X147.414 Y103.28
G0 X133.622 Y103.272
G0 X133.278 Y124.928
G0 X101.722 Y124.928
G0 X101.378 Y103.272
G0 X87.763 Y103.288
G0 X87.224 Y103.547
G0 X86.859 Y104.03
G0 X86.78 Y104.441
G0 X86.6 Y131.9
;TIME_ELAPSED:174.152077
;LAYER:1
