;FLAVOR:Marlin
;TIME:2851
;Filament used: 1.84949m
;Layer height: 0.2
;MINX:93.701
;MINY:93.702
;MINZ:0.2
;MAXX:141.299
;MAXY:141.3
;MAXZ:10
;Generated with Cura_SteamEngine main
M140 S50
M105
M190 S50
M104 S210
M105
M109 S210
M82 ;absolute extrusion mode
; Ender 3 Custom Start G-code
G92 E0 ; Reset Extruder
G28 ; Home all axes
G1 Z2.0 F3000 ; Move Z Axis up little to prevent scratching of Heat Bed
G1 X0.1 Y20 Z0.3 F5000.0 ; Move to start position
G1 X0.1 Y200.0 Z0.3 F1500.0 E15 ; Draw the first line
G1 X0.4 Y200.0 Z0.3 F5000.0 ; Move to side a little
G1 X0.4 Y20 Z0.3 F1500.0 E30 ; Draw the second line
G92 E0 ; Reset Extruder
G1 Z2.0 F3000 ; Move Z Axis up little to prevent scratching of Heat Bed
G1 X5 Y20 Z0.3 F5000.0 ; Move over to prevent blob squish
G92 E0
G92 E0
G1 F2700 E-5
;LAYER_COUNT:50
;LAYER:0
M107
;MESH:Magnetic_Unity_Sensor.stl
G0 F6000 X116.458 Y140.25 Z0.2
;TYPE:WALL-INNER
G1 F2700 E0
G1 F874.3 X115.002 Y140.136 E0.06667
G1 F875.9 X113.604 Y139.938 E0.13101
G1 X112.212 Y139.65 E0.19578
G1 F877.5 X110.855 Y139.282 E0.25973
G1 F875.9 X109.529 Y138.832 E0.32353
G1 F879.1 X108.19 Y138.283 E0.38924
G1 F880.7 X106.934 Y137.674 E0.45249
G1 F879.1 X105.7 Y136.977 E0.51683
G1 X104.513 Y136.208 E0.58105
G1 X103.376 Y135.365 E0.64531
G1 F880.7 X102.279 Y134.439 E0.71036
G1 X101.271 Y133.476 E0.77354
G1 F879.1 X100.308 Y132.437 E0.83785
G1 X99.4 Y131.32 E0.90321
G1 X98.577 Y130.17 E0.96741
G1 X97.846 Y129.004 E1.02989
G1 F880.7 X97.151 Y127.725 E1.09585
G1 X96.566 Y126.467 E1.15872
G1 F879.1 X96.044 Y125.136 E1.22363
G1 X95.615 Y123.802 E1.28725
G1 X95.255 Y122.384 E1.35367
G1 F877.5 X95.002 Y121.041 E1.41583
G1 F875.9 X94.826 Y119.641 E1.48012
G1 X94.736 Y118.228 E1.54464
G1 F874.3 X94.735 Y116.811 E1.60933
G1 F872.7 X94.818 Y115.438 E1.67223
G1 F875.9 X95.004 Y113.95 E1.74056
G1 F877.5 X95.266 Y112.57 E1.80445
G1 X95.619 Y111.187 E1.86937
G1 X96.046 Y109.86 E1.93277
G1 X96.571 Y108.519 E1.99827
G1 F879.1 X97.163 Y107.248 E2.06193
G1 F877.5 X97.84 Y106.004 E2.12635
G1 F871.1 X98.32 Y105.229 E2.16811
G1 F872.7 X98.591 Y104.807 E2.19105
G1 F871.1 X99.068 Y104.133 E2.22888
G1 F874.3 X99.427 Y103.642 E2.25665
G1 F880.7 X100.31 Y102.56 E2.31993
G1 F879.1 X101.271 Y101.52 E2.38422
G1 F880.7 X102.295 Y100.546 E2.44827
G1 F872.7 X102.788 Y100.123 E2.47797
G1 F869.6 X103.092 Y99.87 E2.49613
G1 F879.1 X103.396 Y99.617 E2.51408
G1 F880.7 X104.515 Y98.79 E2.57714
G1 F879.1 X105.702 Y98.019 E2.6414
G1 X106.933 Y97.325 E2.70556
G1 X108.202 Y96.71 E2.76958
G1 F877.5 X109.53 Y96.165 E2.83487
G1 F879.1 X110.889 Y95.705 E2.90001
G1 X112.221 Y95.346 E2.96264
G1 F877.5 X113.606 Y95.06 E3.02696
G1 F875.9 X115.008 Y94.861 E3.09148
G1 X116.418 Y94.75 E3.15593
G1 X117.854 Y94.726 E3.22137
G1 X119.29 Y94.795 E3.28688
G1 F877.5 X120.698 Y94.95 E3.35131
G1 F879.1 X122.077 Y95.188 E3.41484
G1 F880.7 X123.465 Y95.518 E3.4795
G1 F882.4 X124.823 Y95.933 E3.54373
G1 X126.143 Y96.429 E3.60751
G1 X127.436 Y97.006 E3.67156
G1 F879.1 X127.872 Y97.232 E3.69385
G1 F872.7 X128.309 Y97.459 E3.71637
G1 F875.9 X128.701 Y97.671 E3.73668
G1 F884 X129.898 Y98.395 E3.79984
G1 F885.6 X131.06 Y99.202 E3.8636
G1 X132.17 Y100.079 E3.92736
G1 F880.7 X132.457 Y100.333 E3.94473
G1 F871.1 X132.745 Y100.588 E3.96235
G1 F874.3 X133.238 Y101.039 E3.99285
G1 F882.4 X134.229 Y102.048 E4.05682
G1 F884 X135.145 Y103.102 E4.11987
G1 F885.6 X136.004 Y104.224 E4.18356
G1 X136.793 Y105.398 E4.2473
G1 F884 X137.507 Y106.62 E4.31121
G1 F882.4 X138.144 Y107.885 E4.37527
G1 F880.7 X138.7 Y109.183 E4.43926
G1 X139.178 Y110.517 E4.50348
G1 X139.57 Y111.877 E4.56762
G1 X139.879 Y113.269 E4.63224
G1 F879.1 X140.096 Y114.655 E4.69593
G1 F877.5 X140.229 Y116.065 E4.76034
G1 F875.9 X140.276 Y117.477 E4.82472
G1 X140.229 Y118.936 E4.89123
G1 F879.1 X140.097 Y120.344 E4.95544
G1 X139.877 Y121.733 E5.01928
G1 F880.7 X139.57 Y123.121 E5.0837
G1 F884 X139.177 Y124.481 E5.14762
G1 F882.4 X138.703 Y125.813 E5.21157
G1 X138.144 Y127.115 E5.27567
G1 X137.501 Y128.391 E5.3403
G1 F884 X136.794 Y129.599 E5.4035
G1 X135.994 Y130.789 E5.46824
G1 F882.4 X135.144 Y131.897 E5.53141
G1 F884 X134.217 Y132.967 E5.59533
G1 X133.223 Y133.973 E5.65918
G1 F874.3 X132.726 Y134.426 E5.68988
G1 F869.6 X132.439 Y134.68 E5.70747
G1 F879.1 X132.152 Y134.934 E5.72487
G1 F882.4 X131.06 Y135.795 E5.78777
G1 F884 X129.899 Y136.602 E5.85161
G1 X128.686 Y137.337 E5.91565
G1 X127.434 Y137.992 E5.97945
G1 F882.4 X126.144 Y138.569 E6.04337
G1 F884 X124.824 Y139.065 E6.10704
G1 F882.4 X123.431 Y139.488 E6.17289
G1 F880.7 X122.077 Y139.811 E6.23597
G1 F879.1 X120.655 Y140.054 E6.30146
G1 F875.9 X119.288 Y140.204 E6.36413
G1 X117.872 Y140.271 E6.42872
G1 F874.3 X116.458 Y140.25 E6.49328
G0 F6000 X116.454 Y139.775
;TYPE:WALL-OUTER
G1 F1200 X115.068 Y139.667 E6.53951
G1 X113.697 Y139.473 E6.58557
G1 X112.336 Y139.194 E6.63178
G1 X110.998 Y138.83 E6.6779
G1 X109.7 Y138.39 E6.72348
G1 X108.396 Y137.858 E6.77032
G1 X107.154 Y137.255 E6.81624
G1 X105.948 Y136.575 E6.86229
G1 X104.781 Y135.818 E6.90856
G1 X103.667 Y134.991 E6.9547
G1 X102.605 Y134.097 E7.00087
G1 X101.604 Y133.139 E7.04696
G1 X100.66 Y132.121 E7.09313
G1 X99.785 Y131.045 E7.13926
G1 X98.978 Y129.919 E7.18534
G1 X98.249 Y128.754 E7.23105
G1 X97.58 Y127.526 E7.27756
G1 X96.995 Y126.266 E7.32376
G1 X96.484 Y124.961 E7.37038
G1 X96.065 Y123.654 E7.41603
G1 X95.72 Y122.297 E7.4626
G1 X95.467 Y120.945 E7.50834
G1 X95.296 Y119.57 E7.55443
G1 X95.21 Y118.199 E7.60012
G1 X95.21 Y116.811 E7.64628
G1 X95.297 Y115.416 E7.69277
G1 X95.469 Y114.038 E7.73896
G1 X95.725 Y112.687 E7.78469
G1 X96.07 Y111.332 E7.8312
G1 X96.491 Y110.025 E7.87687
G1 X97 Y108.718 E7.92352
G1 X97.585 Y107.463 E7.96957
G1 X98.249 Y106.243 E8.01577
G1 X98.985 Y105.069 E8.06186
G1 X99.793 Y103.941 E8.10801
G1 X100.671 Y102.868 E8.15412
G1 X101.612 Y101.849 E8.20025
G1 X102.616 Y100.893 E8.24636
G1 X103.677 Y99.997 E8.29255
G1 X104.794 Y99.173 E8.33872
G1 X105.957 Y98.417 E8.38486
G1 X107.165 Y97.737 E8.43096
G1 X108.409 Y97.136 E8.47691
G1 X109.711 Y96.602 E8.52372
G1 X111.012 Y96.162 E8.5694
G1 X112.35 Y95.802 E8.61548
G1 X113.709 Y95.523 E8.66163
G1 X115.083 Y95.33 E8.70777
G1 X116.455 Y95.223 E8.75354
G1 X117.854 Y95.201 E8.80008
G1 X119.238 Y95.267 E8.84617
G1 X120.618 Y95.417 E8.89234
G1 X121.973 Y95.652 E8.93808
G1 X123.334 Y95.974 E8.98459
G1 X124.665 Y96.379 E9.03087
G1 X125.96 Y96.867 E9.07689
G1 X127.227 Y97.431 E9.12302
G1 X128.456 Y98.075 E9.16917
G1 X129.637 Y98.79 E9.21509
G1 X130.777 Y99.58 E9.26122
G1 X131.868 Y100.444 E9.30751
G1 X132.901 Y101.37 E9.35365
G1 X133.873 Y102.359 E9.39977
G1 X134.784 Y103.407 E9.44595
G1 X135.626 Y104.508 E9.49206
G1 X136.395 Y105.652 E9.5379
G1 X137.098 Y106.859 E9.58436
G1 X137.721 Y108.099 E9.63052
G1 X138.261 Y109.36 E9.67614
G1 X138.733 Y110.679 E9.72273
G1 X139.116 Y112.013 E9.7689
G1 X139.418 Y113.379 E9.81543
G1 X139.628 Y114.726 E9.86077
G1 X139.757 Y116.108 E9.90693
G1 X139.801 Y117.501 E9.95329
G1 X139.757 Y118.892 E9.99958
G1 X139.627 Y120.275 E10.04578
G1 X139.414 Y121.632 E10.09147
G1 X139.113 Y122.998 E10.13799
G1 X138.729 Y124.329 E10.18406
G1 X138.262 Y125.636 E10.23023
G1 X137.718 Y126.91 E10.2763
G1 X137.093 Y128.152 E10.32255
G1 X136.395 Y129.345 E10.36852
G1 X135.623 Y130.497 E10.41464
G1 X134.775 Y131.601 E10.46094
G1 X133.87 Y132.645 E10.5069
G1 X132.891 Y133.635 E10.5532
G1 X131.859 Y134.563 E10.59937
G1 X130.776 Y135.417 E10.64524
G1 X129.637 Y136.208 E10.69136
G1 X128.443 Y136.931 E10.73779
G1 X127.222 Y137.569 E10.78361
G1 X125.96 Y138.131 E10.82955
G1 X124.655 Y138.623 E10.87594
G1 X123.322 Y139.027 E10.92227
G1 X121.971 Y139.349 E10.96846
G1 X120.603 Y139.582 E11.01462
G1 X119.238 Y139.732 E11.06029
G1 X117.839 Y139.797 E11.10687
G1 X116.454 Y139.775 E11.15294
G0 F6000 X116.4 Y140.472
G0 X116.483 Y140.801
;TYPE:WALL-INNER
G1 F874.3 X117.841 Y140.821 E11.21494
G1 F872.7 X119.237 Y140.758 E11.27885
G1 F871.1 X120.623 Y140.612 E11.3427
G1 F872.7 X122.038 Y140.377 E11.4083
G1 F871.1 X123.364 Y140.072 E11.47064
G1 F869.6 X124.7 Y139.683 E11.53451
G1 X126.014 Y139.212 E11.59857
G1 F868 X127.297 Y138.662 E11.66276
G1 F874.3 X127.691 Y138.471 E11.68275
G1 F877.5 X128.119 Y138.254 E11.70458
G1 F871.1 X128.547 Y138.037 E11.72656
G1 F875.9 X128.956 Y137.808 E11.74792
G1 F880.7 X129.355 Y137.575 E11.76886
G1 F871.1 X129.755 Y137.341 E11.79009
G1 F875.9 X130.198 Y137.056 E11.81409
G1 F880.7 X130.573 Y136.804 E11.83457
G1 F871.1 X130.949 Y136.551 E11.85533
G1 F872.7 X131.403 Y136.217 E11.88111
G1 X132.036 Y135.736 E11.91746
G1 F875.9 X132.521 Y135.333 E11.9462
G1 F879.1 X132.811 Y135.083 E11.96358
G1 F869.6 X133.102 Y134.833 E11.98119
G1 F872.7 X133.618 Y134.347 E12.01361
G1 X134.11 Y133.87 E12.04495
G1 F871.1 X134.362 Y133.603 E12.06177
G1 F880.7 X134.614 Y133.336 E12.0784
G1 X134.834 Y133.095 E12.09319
G1 F871.1 X135.054 Y132.854 E12.10814
G1 F866.4 X135.944 Y131.77 E12.17275
G1 F872.7 X136.193 Y131.433 E12.19191
G1 F880.7 X136.443 Y131.095 E12.21097
G1 F875.9 X136.766 Y130.641 E12.23635
G1 F866.4 X137.531 Y129.442 E12.30187
G1 F871.1 X137.757 Y129.043 E12.32288
G1 F880.7 X137.983 Y128.643 E12.3437
G1 F875.9 X138.198 Y128.246 E12.36427
G1 F874.3 X138.635 Y127.352 E12.4097
G1 X138.804 Y126.99 E12.42794
G1 F868 X139.351 Y125.651 E12.49444
G1 X139.794 Y124.345 E12.55786
G1 F871.1 X140.164 Y122.997 E12.6219
G1 X140.448 Y121.668 E12.68417
G1 F872.7 X140.66 Y120.251 E12.74969
G1 X140.784 Y118.864 E12.81338
G1 F874.3 X140.825 Y117.504 E12.87549
G1 X140.78 Y116.072 E12.94089
G1 F872.7 X140.657 Y114.719 E13.00302
G1 F871.1 X140.45 Y113.34 E13.06691
G1 X140.158 Y111.974 E13.13091
G1 X139.791 Y110.639 E13.19434
G1 F868 X139.337 Y109.309 E13.25896
G1 F866.4 X138.807 Y108.018 E13.32325
G1 F868 X138.202 Y106.761 E13.38739
G1 F866.4 X137.523 Y105.542 E13.45167
G1 F875.9 X137.251 Y105.105 E13.47513
G1 F880.7 X137.012 Y104.737 E13.49501
G1 F871.1 X136.772 Y104.368 E13.51518
G1 F866.4 X135.95 Y103.237 E13.57958
G1 F875.9 X135.547 Y102.737 E13.60885
G1 F880.7 X135.306 Y102.448 E13.6259
G1 F871.1 X135.064 Y102.158 E13.6432
G1 F874.3 X134.595 Y101.644 E13.67497
G1 F872.7 X134.117 Y101.136 E13.70687
G1 F869.6 X133.858 Y100.884 E13.72345
G1 F879.1 X133.599 Y100.632 E13.73986
G1 F875.9 X133.108 Y100.171 E13.77055
G1 F871.1 X132.815 Y99.919 E13.78826
G1 F880.7 X132.521 Y99.666 E13.80583
G1 F875.9 X132.043 Y99.269 E13.83415
G1 F868 X130.929 Y98.433 E13.89819
G1 X129.763 Y97.663 E13.96244
G1 F871.1 X129.363 Y97.428 E13.9837
G1 F880.7 X128.963 Y97.193 E14.00472
G1 F875.9 X128.561 Y96.967 E14.02573
G1 F872.7 X128.12 Y96.744 E14.04833
G1 F879.1 X127.679 Y96.52 E14.07079
G1 F874.3 X127.276 Y96.325 E14.09123
G1 F866.4 X125.977 Y95.771 E14.15628
G1 F869.6 X124.714 Y95.321 E14.21782
G1 F872.7 X123.372 Y94.928 E14.28177
G1 F871.1 X121.976 Y94.609 E14.34738
G1 X120.598 Y94.383 E14.41136
G1 F872.7 X119.213 Y94.238 E14.47504
G1 X117.826 Y94.177 E14.53854
G1 F874.3 X116.437 Y94.2 E14.60195
G1 X115.067 Y94.303 E14.66467
G1 F871.1 X113.686 Y94.489 E14.72851
G1 F868 X112.316 Y94.76 E14.79273
G1 F869.6 X110.944 Y95.118 E14.85781
G1 X109.638 Y95.541 E14.92082
G1 F872.7 X109.331 Y95.656 E14.93581
G1 X108.339 Y96.052 E14.98466
G1 X107.973 Y96.215 E15.00298
G1 X107.073 Y96.638 E15.04846
G1 F874.3 X106.66 Y96.854 E15.06974
G1 F877.5 X106.251 Y97.077 E15.09092
G1 F871.1 X105.842 Y97.3 E15.11227
G1 F872.7 X105.417 Y97.556 E15.13496
G1 X104.656 Y98.033 E15.17603
G1 X104.202 Y98.345 E15.20123
G1 X103.514 Y98.836 E15.23988
G1 F874.3 X103.038 Y99.207 E15.26743
G1 F872.7 X102.424 Y99.705 E15.30358
G1 X101.912 Y100.158 E15.33485
G1 X101.391 Y100.633 E15.36709
G1 X100.884 Y101.138 E15.39982
G1 X100.406 Y101.632 E15.43125
G1 F864.9 X99.488 Y102.683 E15.49565
G1 F869.6 X99.237 Y103.003 E15.51432
G1 F877.5 X98.985 Y103.324 E15.53288
G1 F872.7 X98.617 Y103.809 E15.56072
G1 F871.1 X98.14 Y104.499 E15.59916
G1 F872.7 X97.848 Y104.94 E15.62334
G1 F871.1 X97.371 Y105.725 E15.66543
G1 X97.134 Y106.136 E15.68717
G1 F872.7 X96.68 Y106.998 E15.73172
G1 F874.3 X96.473 Y107.408 E15.75269
G1 F872.7 X96.067 Y108.307 E15.7978
G1 X95.921 Y108.651 E15.81489
G1 F868 X95.42 Y109.989 E15.88058
G1 F871.1 X95.092 Y111.036 E15.93085
G1 F872.7 X95.02 Y111.289 E15.94288
G1 F871.1 X94.68 Y112.682 E16.00858
G1 X94.432 Y114.052 E16.07237
G1 F872.7 X94.275 Y115.349 E16.13211
G1 F874.3 X94.185 Y116.788 E16.19793
G1 F872.7 X94.186 Y118.201 E16.26255
G1 X94.268 Y119.568 E16.32518
G1 F871.1 X94.436 Y120.966 E16.38969
G1 X94.685 Y122.343 E16.4538
G1 X95.013 Y123.685 E16.5171
G1 F869.6 X95.427 Y125.032 E16.58178
G1 F872.7 X95.532 Y125.327 E16.5961
G1 X95.917 Y126.337 E16.64553
G1 F866.4 X96.485 Y127.613 E16.70987
G1 F874.3 X96.68 Y128.001 E16.72969
G1 F877.5 X96.901 Y128.423 E16.75136
G1 F869.6 X97.123 Y128.845 E16.77325
G1 F864.9 X97.842 Y130.05 E16.838
G1 F871.1 X98.14 Y130.498 E16.86265
G1 X98.627 Y131.202 E16.90187
G1 F872.7 X98.984 Y131.673 E16.9289
G1 X99.471 Y132.295 E16.96503
G1 X99.898 Y132.794 E16.99506
G1 X100.398 Y133.357 E17.0295
G1 X100.883 Y133.858 E17.06139
G1 F871.1 X101.404 Y134.377 E17.09508
G1 F872.7 X101.93 Y134.857 E17.12765
G1 X102.441 Y135.308 E17.15882
G1 X103.038 Y135.79 E17.19391
G1 X103.529 Y136.173 E17.22239
G1 F874.3 X104.23 Y136.673 E17.26169
G1 X104.645 Y136.958 E17.28467
G1 F872.7 X105.414 Y137.44 E17.32618
G1 X105.859 Y137.708 E17.34994
G1 F868 X107.062 Y138.356 E17.41277
G1 F872.7 X107.97 Y138.783 E17.45866
G1 X108.329 Y138.943 E17.47663
G1 X109.329 Y139.341 E17.52585
G1 X109.643 Y139.458 E17.54118
G1 X110.687 Y139.801 E17.59143
G1 X110.988 Y139.893 E17.60583
G1 F871.1 X112.305 Y140.235 E17.66817
G1 X113.673 Y140.507 E17.73207
G1 X115.093 Y140.699 E17.79772
G1 F872.7 X116.483 Y140.801 E17.86146
G0 F6000 X116.454 Y141.276
;TYPE:WALL-OUTER
G1 F1200 X117.861 Y141.295 E17.90826
G1 X119.286 Y141.232 E17.9557
G1 X120.7 Y141.081 E18.003
G1 X122.122 Y140.845 E18.05094
G1 X123.476 Y140.535 E18.09714
G1 X124.84 Y140.138 E18.14439
G1 X126.2 Y139.65 E18.19245
G1 X127.49 Y139.099 E18.23911
G1 X128.785 Y138.451 E18.28727
G1 X129.999 Y137.752 E18.33386
G1 X131.218 Y136.946 E18.38247
G1 X132.328 Y136.115 E18.42859
G1 X133.416 Y135.194 E18.476
G1 X134.445 Y134.211 E18.52333
G1 X135.414 Y133.168 E18.57068
G1 X136.317 Y132.068 E18.61801
G1 X137.156 Y130.917 E18.66539
G1 X137.941 Y129.687 E18.71392
G1 X138.618 Y128.473 E18.76015
G1 X139.236 Y127.192 E18.80746
G1 X139.796 Y125.825 E18.85659
G1 X140.247 Y124.492 E18.90339
G1 X140.625 Y123.117 E18.95082
G1 X140.918 Y121.739 E18.99768
G1 X141.132 Y120.316 E19.04554
G1 X141.259 Y118.9 E19.09283
G1 X141.299 Y117.533 E19.13831
G1 X141.257 Y116.09 E19.18633
G1 X141.13 Y114.67 E19.23375
G1 X140.915 Y113.242 E19.28178
G1 X140.622 Y111.869 E19.32847
G1 X140.246 Y110.499 E19.37572
G1 X139.786 Y109.149 E19.42316
G1 X139.237 Y107.812 E19.47123
G1 X138.63 Y106.549 E19.51784
G1 X137.938 Y105.304 E19.56521
G1 X137.17 Y104.105 E19.61257
G1 X136.32 Y102.935 E19.66067
G1 X135.43 Y101.85 E19.70735
G1 X134.463 Y100.807 E19.75465
G1 X133.434 Y99.822 E19.80203
G1 X132.348 Y98.901 E19.84939
G1 X131.21 Y98.048 E19.89669
G1 X130.002 Y97.25 E19.94485
G1 X128.775 Y96.541 E19.99198
G1 X127.483 Y95.894 E20.04004
G1 X126.159 Y95.329 E20.08792
G1 X124.868 Y94.87 E20.13349
G1 X123.5 Y94.469 E20.1809
G1 X122.076 Y94.143 E20.22949
G1 X120.67 Y93.912 E20.27688
G1 X119.257 Y93.764 E20.32414
G1 X117.819 Y93.702 E20.37201
G1 X116.446 Y93.723 E20.41768
G1 X115.047 Y93.826 E20.46434
G1 X113.638 Y94.015 E20.51162
G1 X112.218 Y94.294 E20.55975
G1 X110.798 Y94.665 E20.60857
G1 X109.485 Y95.09 E20.65447
G1 X108.139 Y95.618 E20.70256
G1 X106.866 Y96.208 E20.74922
G1 X105.61 Y96.883 E20.79665
G1 X104.382 Y97.642 E20.84467
G1 X103.234 Y98.449 E20.89134
G1 X102.105 Y99.349 E20.93936
G1 X101.062 Y100.288 E20.98604
G1 X100.047 Y101.317 E21.03411
G1 X99.124 Y102.374 E21.08078
G1 X98.231 Y103.528 E21.12932
G1 X97.449 Y104.676 E21.17552
G1 X96.72 Y105.897 E21.22281
G1 X96.047 Y107.194 E21.27141
G1 X95.483 Y108.462 E21.31757
G1 X94.964 Y109.843 E21.36664
G1 X94.558 Y111.175 E21.41295
G1 X94.216 Y112.575 E21.46089
G1 X93.96 Y113.995 E21.50888
G1 X93.797 Y115.354 E21.5544
G1 X93.71 Y116.774 E21.60172
