;FLAVOR:Marlin
;TIME:3503
;Filament used: 2.12142m
;Layer height: 0.2
;MINX:107.7
;MINY:62.7
;MINZ:0.2
;MAXX:127.3
;MAXY:172.3
;MAXZ:11
;Generated with Cura_SteamEngine main
M140 S50
M105
M190 S50
M104 S210
M105
M109 S210
M82 ;absolute extrusion mode
; Ender 3 Custom Start G-code
G92 E0 ; Reset Extruder
G28 ; Home all axes
G1 Z2.0 F3000 ; Move Z Axis up little to prevent scratching of Heat Bed
G1 X0.1 Y20 Z0.3 F5000.0 ; Move to start position
G1 X0.1 Y200.0 Z0.3 F1500.0 E15 ; Draw the first line
G1 X0.4 Y200.0 Z0.3 F5000.0 ; Move to side a little
G1 X0.4 Y20 Z0.3 F1500.0 E30 ; Draw the second line
G92 E0 ; Reset Extruder
G1 Z2.0 F3000 ; Move Z Axis up little to prevent scratching of Heat Bed
G1 X5 Y20 Z0.3 F5000.0 ; Move over to prevent blob squish
G92 E0
G92 E0
G1 F2700 E-5
;LAYER_COUNT:55
;LAYER:0
M107
;MESH:Body1.stl
G0 F6000 X111.089 Y169.054 Z0.2
;TYPE:WALL-INNER
G1 F2700 E0
G1 F1200 X110.699 Y168.893 E0.01403
G1 X110.365 Y168.638 E0.02801
G1 X110.11 Y168.308 E0.04188
G1 X109.949 Y167.918 E0.05591
G1 X109.905 Y167.584 E0.06712
G1 X109.9 Y167.505 E0.06975
G1 X109.946 Y167.089 E0.08367
G1 X110.109 Y166.693 E0.09792
G1 X110.365 Y166.361 E0.11186
G1 X110.702 Y166.106 E0.12592
G1 X111.086 Y165.949 E0.13971
G1 X111.503 Y165.896 E0.15369
G1 X111.92 Y165.951 E0.16768
G1 X112.3 Y166.107 E0.18135
G1 X112.636 Y166.363 E0.1954
G1 X112.9 Y166.713 E0.20998
G1 X113.045 Y167.08 E0.2231
G1 X113.106 Y167.495 E0.23705
G1 X113.052 Y167.916 E0.25117
G1 X112.89 Y168.308 E0.26528
G1 X112.635 Y168.637 E0.27912
G1 X112.304 Y168.892 E0.29302
G1 X111.915 Y169.052 E0.30701
G1 X111.505 Y169.1 E0.32074
G1 X111.089 Y169.054 E0.33466
G0 F6000 X111.186 Y168.662
;TYPE:WALL-OUTER
G1 F1200 X110.887 Y168.534 E0.34548
G1 X110.649 Y168.352 E0.35544
G1 X110.458 Y168.104 E0.36585
G1 X110.336 Y167.797 E0.37684
G1 X110.301 Y167.532 E0.38573
G1 X110.301 Y167.479 E0.38749
G1 X110.338 Y167.187 E0.39728
G1 X110.459 Y166.894 E0.40783
G1 X110.649 Y166.648 E0.41817
G1 X110.891 Y166.463 E0.4283
G1 X111.177 Y166.343 E0.43861
G1 X111.493 Y166.297 E0.44923
G1 X111.807 Y166.338 E0.45977
G1 X112.099 Y166.457 E0.47025
G1 X112.341 Y166.641 E0.48037
G1 X112.54 Y166.896 E0.49112
G1 X112.662 Y167.187 E0.50162
G1 X112.7 Y167.477 E0.51135
G1 X112.662 Y167.811 E0.52253
G1 X112.541 Y168.105 E0.5331
G1 X112.351 Y168.351 E0.54344
G1 X112.105 Y168.542 E0.5538
G1 X111.797 Y168.664 E0.56482
G1 X111.506 Y168.702 E0.57458
G1 X111.186 Y168.662 E0.5853
G1 F2700 E-4.4147
G0 F6000 X111.071 Y168.936
G0 X110.52 Y168.985
G0 X108.301 Y170.246
G0 X108.22 Y171.776
;TYPE:WALL-INNER
G1 F2700 E0.5853
G1 F1200 X108.432 Y171.9 E0.59347
G1 X126.569 Y171.9 E1.19671
G1 X126.78 Y171.776 E1.20485
G1 X126.9 Y171.567 E1.21287
G1 X126.9 Y163.431 E1.48347
G1 X126.78 Y163.223 E1.49146
G1 X126.568 Y163.1 E1.49961
G1 X125.424 Y163.096 E1.53766
G1 X125.091 Y163.053 E1.54883
G1 X124.69 Y162.889 E1.56324
G1 X124.368 Y162.637 E1.57684
G1 X124.108 Y162.303 E1.59092
G1 X123.948 Y161.915 E1.60487
G1 X123.9 Y161.536 E1.61758
G1 X123.9 Y63.429 E4.88063
G1 X123.779 Y63.223 E4.88858
G1 X123.568 Y63.1 E4.8967
G1 X111.431 Y63.1 E5.30038
G1 X111.219 Y63.224 E5.30855
G1 X111.1 Y63.432 E5.31652
G1 X111.1 Y161.528 E8.57921
G1 X111.052 Y161.908 E8.59194
G1 X110.893 Y162.302 E8.60608
G1 X110.646 Y162.62 E8.61947
G1 X110.314 Y162.887 E8.63364
G1 X109.917 Y163.05 E8.64791
G1 X109.572 Y163.097 E8.65949
G1 X108.431 Y163.1 E8.69744
G1 X108.221 Y163.223 E8.70554
G1 X108.12 Y163.396 E8.7122
G1 X108.1 Y163.537 E8.71694
G1 X108.1 Y171.568 E8.98405
G1 X108.22 Y171.776 E8.99204
G0 F6000 X108.292 Y172.27
;TYPE:WALL-OUTER
G1 F1200 X108.51 Y172.3 E8.99936
G1 X126.485 Y172.3 E9.59721
G1 X126.708 Y172.27 E9.60469
G1 X126.896 Y172.192 E9.61146
G1 X127.066 Y172.062 E9.61858
G1 X127.192 Y171.896 E9.62551
G1 X127.27 Y171.708 E9.63228
G1 X127.3 Y171.49 E9.6396
G1 X127.3 Y163.513 E9.90491
G1 X127.27 Y163.29 E9.9124
G1 X127.192 Y163.104 E9.91911
G1 X127.066 Y162.938 E9.92604
G1 X126.896 Y162.808 E9.93316
G1 X126.636 Y162.7 E9.94252
G1 X125.475 Y162.699 E9.98114
G1 X125.194 Y162.662 E9.99056
G1 X124.889 Y162.536 E10.00154
G1 X124.645 Y162.345 E10.01184
G1 X124.465 Y162.113 E10.02161
G1 X124.345 Y161.83 E10.03183
G1 X124.3 Y161.526 E10.04206
G1 X124.3 Y63.513 E13.30198
G1 X124.27 Y63.29 E13.30946
G1 X124.194 Y63.108 E13.31602
G1 X124.065 Y62.938 E13.32312
G1 X123.896 Y62.808 E13.33021
G1 X123.708 Y62.73 E13.33698
G1 X123.489 Y62.7 E13.34434
G1 X111.515 Y62.7 E13.74259
G1 X111.292 Y62.73 E13.75008
G1 X111.108 Y62.806 E13.7567
G1 X110.934 Y62.938 E13.76396
G1 X110.808 Y63.104 E13.77089
G1 X110.73 Y63.291 E13.77763
G1 X110.7 Y63.511 E13.78502
G1 X110.699 Y161.525 E17.04498
G1 X110.655 Y161.83 E17.05523
G1 X110.543 Y162.099 E17.06492
G1 X110.354 Y162.346 E17.07526
G1 X110.109 Y162.537 E17.08559
G1 X109.823 Y162.657 E17.09591
G1 X109.527 Y162.699 E17.10585
G1 X108.364 Y162.7 E17.14454
G1 X108.104 Y162.808 E17.1539
G1 X107.935 Y162.938 E17.16099
G1 X107.808 Y163.104 E17.16794
G1 X107.73 Y163.29 E17.17465
G1 X107.7 Y163.51 E17.18204
G1 X107.7 Y171.488 E17.44739
G1 X107.73 Y171.708 E17.45477
G1 X107.808 Y171.896 E17.46154
G1 X107.934 Y172.062 E17.46847
G1 X108.104 Y172.192 E17.47559
G1 X108.292 Y172.27 E17.48236
G1 F2700 E12.48236
G0 F6000 X108.452 Y171.787
G0 X112.028 Y171.699
G0 X122.173 Y168.684
G0 X122.695 Y168.892
;TYPE:WALL-INNER
G1 F2700 E17.48236
G1 F1200 X122.365 Y168.637 E17.49623
G1 X122.11 Y168.308 E17.51007
G1 X121.949 Y167.919 E17.52408
G1 X121.905 Y167.584 E17.53531
G1 X121.9 Y167.504 E17.53798
G1 X121.945 Y167.105 E17.55134
G1 X122.1 Y166.713 E17.56536
G1 X122.366 Y166.363 E17.57998
G1 X122.703 Y166.105 E17.59409
G1 X123.08 Y165.951 E17.60764
G1 X123.489 Y165.896 E17.62136
G1 X123.914 Y165.949 E17.63561
G1 X124.301 Y166.108 E17.64953
G1 X124.636 Y166.362 E17.66351
G1 X124.892 Y166.697 E17.67753
G1 X125.052 Y167.085 E17.69149
G1 X125.1 Y167.495 E17.70522
G1 X125.054 Y167.911 E17.71914
G1 X124.892 Y168.304 E17.73328
G1 X124.636 Y168.637 E17.74725
G1 X124.301 Y168.893 E17.76127
G1 X123.915 Y169.052 E17.77516
G1 X123.505 Y169.1 E17.78889
G1 X123.089 Y169.054 E17.80281
G1 X122.695 Y168.892 E17.81698
G0 F6000 X122.894 Y168.541
;TYPE:WALL-OUTER
G1 F1200 X122.649 Y168.351 E17.82729
G1 X122.459 Y168.106 E17.8376
G1 X122.338 Y167.813 E17.84814
G1 X122.301 Y167.532 E17.85757
G1 X122.301 Y167.479 E17.85933
G1 X122.338 Y167.187 E17.86912
G1 X122.46 Y166.896 E17.87962
G1 X122.643 Y166.657 E17.88963
G1 X122.89 Y166.464 E17.90006
G1 X123.175 Y166.343 E17.91035
G1 X123.48 Y166.3 E17.9206
G1 X123.823 Y166.343 E17.9321
G1 X124.089 Y166.452 E17.94166
G1 X124.35 Y166.648 E17.95251
G1 X124.541 Y166.894 E17.96287
G1 X124.662 Y167.187 E17.97342
G1 X124.702 Y167.494 E17.98371
G1 X124.664 Y167.797 E17.99387
G1 X124.542 Y168.104 E18.00486
G1 X124.351 Y168.352 E18.01527
G1 X124.113 Y168.534 E18.02523
G1 X123.797 Y168.664 E18.0366
G1 X123.506 Y168.702 E18.04636
G1 X123.187 Y168.662 E18.05705
G1 X122.894 Y168.541 E18.0676
G0 F6000 X122.538 Y169.225
;TYPE:SKIN
G1 F1200 X122.12 Y168.908 E18.08504
G1 X121.776 Y168.464 E18.10373
G1 X121.589 Y167.924 E18.12273
G1 X121.535 Y167.54 E18.13563
G1 X121.535 Y167.489 E18.13733
G1 X121.592 Y167.017 E18.15314
G1 X121.785 Y166.535 E18.17041
G1 X122.107 Y166.107 E18.18822
G1 X122.5 Y165.803 E18.20475
G1 X122.993 Y165.598 E18.22251
G1 X123.492 Y165.534 E18.23924
G1 X124.015 Y165.599 E18.25677
G1 X124.486 Y165.798 E18.27377
G1 X124.878 Y166.091 E18.29005
G1 X125.222 Y166.533 E18.30868
G1 X125.409 Y167.071 E18.32762
G1 X125.459 Y167.469 E18.34097
G1 X125.408 Y167.986 E18.35824
G1 X125.212 Y168.478 E18.37586
G1 X124.902 Y168.888 E18.39295
G1 X124.467 Y169.217 E18.41109
G1 X123.994 Y169.405 E18.42802
G1 X123.539 Y169.465 E18.44329
G1 X123.077 Y169.41 E18.45876
G1 X122.538 Y169.225 E18.47772
G1 F2700 E13.47772
G0 F6000 X122.809 Y169.048
G0 X122.173 Y168.684
G0 X112.827 Y168.684
G0 X110.997 Y169.406
G1 F2700 E18.47772
G1 F1200 X110.521 Y169.212 E18.49481
G1 X110.117 Y168.905 E18.51169
G1 X109.791 Y168.485 E18.52937
G1 X109.596 Y167.997 E18.54685
G1 X109.538 Y167.564 E18.56138
G1 X109.538 Y167.515 E18.56301
G1 X109.589 Y167.081 E18.57755
G1 X109.775 Y166.537 E18.59667
G1 X110.1 Y166.111 E18.61449
G1 X110.51 Y165.8 E18.63161
G1 X110.998 Y165.593 E18.64924
G1 X111.505 Y165.534 E18.66621
G1 X112.033 Y165.603 E18.68392
G1 X112.513 Y165.812 E18.70134
G1 X112.907 Y166.125 E18.71807
G1 X113.193 Y166.504 E18.73386
G1 X113.403 Y166.983 E18.75126
G1 X113.466 Y167.479 E18.76789
G1 X113.411 Y167.92 E18.78267
G1 X113.224 Y168.467 E18.8019
G1 X112.892 Y168.892 E18.81984
G1 X112.486 Y169.209 E18.83697
G1 X111.994 Y169.405 E18.85458
G1 X111.562 Y169.462 E18.86907
G1 X110.997 Y169.406 E18.88796
G1 F2700 E13.88796
G0 F6000 X111.24 Y169.173
G0 X110.315 Y168.827
G0 X108.301 Y170.246
G0 X108.461 Y171.481
G1 F2700 E18.88796
G1 F1200 X108.521 Y171.54 E18.89076
G1 X126.482 Y171.539 E19.48814
G1 X126.54 Y171.48 E19.49089
G1 X126.54 Y163.512 E19.75591
G1 X126.472 Y163.46 E19.75876
G1 X125.385 Y163.454 E19.79491
G1 X125.001 Y163.402 E19.8078
G1 X124.506 Y163.204 E19.82553
G1 X124.078 Y162.863 E19.84373
G1 X123.786 Y162.458 E19.86034
G1 X123.602 Y162.024 E19.87602
G1 X123.546 Y161.625 E19.88942
G1 X123.54 Y63.519 E23.15244
G1 X123.481 Y63.46 E23.15521
G1 X111.521 Y63.46 E23.55301
G1 X111.46 Y63.533 E23.55617
G1 X111.459 Y161.561 E26.81659
G1 X111.406 Y161.989 E26.83094
G1 X111.219 Y162.461 E26.84782
G1 X110.887 Y162.899 E26.8661
G1 X110.487 Y163.208 E26.88292
G1 X110.012 Y163.4 E26.89996
G1 X109.586 Y163.459 E26.91426
G1 X108.52 Y163.46 E26.94972
G1 X108.46 Y163.52 E26.95254
G1 X108.461 Y171.481 E27.21732
G0 F6000 X108.66 Y170.885
G1 F1200 X109.112 Y171.338 E27.23861
G0 F6000 X109.678 Y171.338
G1 F1200 X108.66 Y170.32 E27.28649
G0 F6000 X108.66 Y169.754
G1 F1200 X110.244 Y171.338 E27.361
G0 F6000 X110.809 Y171.338
G1 F1200 X108.66 Y169.188 E27.4621
G0 F6000 X108.66 Y168.623
G1 F1200 X111.375 Y171.338 E27.58981
G0 F6000 X111.941 Y171.338
G1 F1200 X108.66 Y168.057 E27.74414
G0 F6000 X108.66 Y167.491
G1 F1200 X109.52 Y168.352 E27.78461
G0 F6000 X109.346 Y167.612
G1 F1200 X108.66 Y166.925 E27.8169
G0 F6000 X108.66 Y166.36
G1 F1200 X109.383 Y167.083 E27.85091
G0 F6000 X109.523 Y166.657
G1 F1200 X108.66 Y165.794 E27.8915
G0 F6000 X108.66 Y165.228
G1 F1200 X109.716 Y166.284 E27.94117
G0 F6000 X109.961 Y165.964
G1 F1200 X108.66 Y164.663 E28.00237
G0 F6000 X108.66 Y164.097
G1 F1200 X110.283 Y165.72 E28.07871
G0 F6000 X110.648 Y165.52
G1 F1200 X108.787 Y163.659 E28.16624
G0 F6000 X109.351 Y163.657
G1 F1200 X111.075 Y165.38 E28.24731
G0 F6000 X111.604 Y165.344
G1 F1200 X109.88 Y163.62 E28.3284
G0 F6000 X110.317 Y163.491
G1 F1200 X112.343 Y165.518 E28.42373
G0 F6000 X112.167 Y165.942
G0 X113.05 Y166.815
G0 X113.469 Y166.643
G1 F1200 X118.163 Y171.338 E28.64454
G0 F6000 X117.598 Y171.338
G1 F1200 X113.652 Y167.392 E28.83015
G0 F6000 X113.615 Y167.921
G1 F1200 X117.032 Y171.338 E28.99087
G0 F6000 X116.466 Y171.338
G1 F1200 X113.475 Y168.347 E29.13156
G0 F6000 X113.281 Y168.718
G1 F1200 X115.901 Y171.338 E29.2548
G0 F6000 X115.335 Y171.338
G1 F1200 X113.033 Y169.035 E29.3631
G0 F6000 X112.714 Y169.283
G1 F1200 X114.769 Y171.338 E29.45976
G0 F6000 X114.204 Y171.338
G1 F1200 X112.347 Y169.481 E29.54711
G0 F6000 X111.915 Y169.615
G1 F1200 X113.638 Y171.338 E29.62815
G0 F6000 X113.072 Y171.338
G1 F1200 X111.381 Y169.646 E29.70772
G0 F6000 X110.648 Y169.479
G1 F1200 X112.507 Y171.338 E29.79516
G0 F6000 X112.661 Y171.8
G0 X118.727 Y171.799
G0 X118.729 Y171.338
G1 F1200 X110.693 Y163.302 E30.17315
G0 F6000 X111.012 Y163.055
G1 F1200 X119.295 Y171.338 E30.56275
G0 F6000 X119.86 Y171.338
G1 F1200 X111.261 Y162.739 E30.96722
G0 F6000 X111.466 Y162.378
G1 F1200 X120.426 Y171.338 E31.38867
G0 F6000 X120.992 Y171.338
G1 F1200 X111.611 Y161.957 E31.82993
G0 F6000 X111.659 Y161.44
G1 F1200 X121.558 Y171.338 E32.29552
G0 F6000 X122.123 Y171.338
G1 F1200 X111.659 Y160.874 E32.78772
G0 F6000 X111.659 Y160.308
G1 F1200 X122.689 Y171.338 E33.30654
G0 F6000 X123.255 Y171.338
G1 F1200 X111.659 Y159.743 E33.85195
G0 F6000 X111.659 Y159.177
G1 F1200 X123.82 Y171.338 E34.42397
G0 F6000 X124.386 Y171.338
G1 F1200 X122.456 Y169.407 E34.51477
G0 F6000 X123.246 Y169.632
G1 F1200 X124.952 Y171.338 E34.59502
G0 F6000 X125.517 Y171.338
G1 F1200 X123.808 Y169.629 E34.6754
G0 F6000 X124.261 Y169.516
G1 F1200 X126.083 Y171.338 E34.76111
G0 F6000 X126.34 Y171.029
G1 F1200 X124.644 Y169.333 E34.84088
G0 F6000 X124.966 Y169.089
G1 F1200 X126.34 Y170.463 E34.90551
G0 F6000 X126.34 Y169.897
G1 F1200 X125.228 Y168.786 E34.95779
G0 F6000 X125.444 Y168.436
G1 F1200 X126.34 Y169.332 E34.99994
G0 F6000 X126.34 Y168.766
G1 F1200 X125.604 Y168.031 E35.03453
G0 F6000 X125.659 Y167.519
G1 F1200 X126.34 Y168.2 E35.06656
G0 F6000 X126.34 Y167.635
G1 F1200 X125.537 Y166.832 E35.10433
G0 F6000 X126.34 Y167.069
G1 F1200 X111.659 Y152.389 E35.79486
G0 F6000 X111.659 Y152.954
G1 F1200 X124.136 Y165.431 E36.38174
G0 F6000 X123.472 Y165.333
G1 F1200 X111.659 Y153.52 E36.93739
G0 F6000 X111.659 Y154.086
G1 F1200 X122.972 Y165.398 E37.46949
G0 F6000 X122.563 Y165.555
G1 F1200 X111.659 Y154.652 E37.98236
G0 F6000 X111.659 Y155.217
G1 F1200 X122.212 Y165.769 E38.47872
G0 F6000 X121.91 Y166.034
G1 F1200 X111.659 Y155.783 E38.96089
G0 F6000 X111.659 Y156.349
G1 F1200 X121.668 Y166.357 E39.43166
G0 F6000 X121.487 Y166.742
G1 F1200 X111.659 Y156.914 E39.89394
G0 F6000 X111.659 Y157.48
G1 F1200 X121.372 Y167.192 E40.35079
G0 F6000 X121.361 Y167.747
G1 F1200 X111.659 Y158.046 E40.80712
G0 F6000 X111.659 Y158.611
G1 F1200 X121.592 Y168.544 E41.27433
G1 F2700 E36.27433
G0 F6000 X121.954 Y168.193
G0 X122.778 Y168.749
G0 X123.127 Y168.894
G0 X123.506 Y168.943
G0 X123.874 Y168.894
G0 X124.222 Y168.749
G0 X124.52 Y168.52
G0 X124.726 Y168.252
G0 X125.188 Y166.939
G0 X126.7 Y166.939
G0 X126.34 Y166.503
G1 F2700 E41.27433
G1 F1200 X111.659 Y151.823 E41.96486
G0 F6000 X111.659 Y151.257
G1 F1200 X126.34 Y165.938 E42.65541
G0 F6000 X126.34 Y165.372
G1 F1200 X124.131 Y163.164 E42.75929
G0 F6000 X123.832 Y162.865
G1 F1200 X111.659 Y150.692 E43.33187
G0 F6000 X111.659 Y150.126
G1 F1200 X123.373 Y161.84 E43.88286
G0 F6000 X123.349 Y161.25
G1 F1200 X111.659 Y149.56 E44.43272
G0 F6000 X111.659 Y148.995
G1 F1200 X123.349 Y160.684 E44.98256
G0 F6000 X123.349 Y160.118
G1 F1200 X111.659 Y148.429 E45.5324
G0 F6000 X111.659 Y147.863
G1 F1200 X123.349 Y159.552 E46.08224
G0 F6000 X123.349 Y158.987
G1 F1200 X111.659 Y147.298 E46.63208
G0 F6000 X111.659 Y146.732
G1 F1200 X123.349 Y158.421 E47.18191
G0 F6000 X123.349 Y157.855
G1 F1200 X111.659 Y146.166 E47.73175
G0 F6000 X111.659 Y145.601
G1 F1200 X123.349 Y157.29 E48.28159
G0 F6000 X123.349 Y156.724
G1 F1200 X111.659 Y145.035 E48.83143
G0 F6000 X111.659 Y144.469
G1 F1200 X123.349 Y156.158 E49.38127
G0 F6000 X123.349 Y155.593
G1 F1200 X111.659 Y143.904 E49.9311
G0 F6000 X111.659 Y143.338
G1 F1200 X123.349 Y155.027 E50.48094
G0 F6000 X123.349 Y154.461
G1 F1200 X111.659 Y142.772 E51.03078
G0 F6000 X111.659 Y142.206
G1 F1200 X123.348 Y153.895 E51.5806
G0 F6000 X123.348 Y153.329
G1 F1200 X111.659 Y141.641 E52.13039
G0 F6000 X111.659 Y141.075
G1 F1200 X123.348 Y152.764 E52.6802
G0 F6000 X123.348 Y152.198
G1 F1200 X111.659 Y140.509 E53.23002
G0 F6000 X111.659 Y139.944
G1 F1200 X123.348 Y151.632 E53.77981
G0 F6000 X123.348 Y151.066
G1 F1200 X111.659 Y139.378 E54.3296
G0 F6000 X111.659 Y138.812
G1 F1200 X123.348 Y150.501 E54.87941
G0 F6000 X123.348 Y149.935
G1 F1200 X111.659 Y138.247 E55.4292
G0 F6000 X111.659 Y137.681
G1 F1200 X123.348 Y149.369 E55.979
G0 F6000 X123.348 Y148.804
G1 F1200 X111.659 Y137.115 E56.52881
G0 F6000 X111.659 Y136.55
G1 F1200 X123.348 Y148.238 E57.0786
G0 F6000 X123.348 Y147.672
G1 F1200 X111.659 Y135.984 E57.62839
G0 F6000 X111.659 Y135.418
G1 F1200 X123.348 Y147.107 E58.17821
G0 F6000 X123.347 Y146.54
G1 F1200 X111.659 Y134.853 E58.72795
G0 F6000 X111.659 Y134.287
G1 F1200 X123.347 Y145.975 E59.27772
G0 F6000 X123.347 Y145.409
G1 F1200 X111.659 Y133.721 E59.82749
G0 F6000 X111.659 Y133.155
G1 F1200 X123.347 Y144.843 E60.37725
G0 F6000 X123.347 Y144.278
G1 F1200 X111.659 Y132.59 E60.92702
