;FLAVOR:Marlin
;TIME:2218
;Filament used: 1.37229m
;Layer height: 0.2
;MINX:95.706
;MINY:95.703
;MINZ:0.2
;MAXX:139.295
;MAXY:139.297
;MAXZ:11.6
;Generated with Cura_SteamEngine main
M140 S50
M105
M190 S50
M104 S210
M105
M109 S210
M82 ;absolute extrusion mode
; Ender 3 Custom Start G-code
G92 E0 ; Reset Extruder
G28 ; Home all axes
G1 Z2.0 F3000 ; Move Z Axis up little to prevent scratching of Heat Bed
G1 X0.1 Y20 Z0.3 F5000.0 ; Move to start position
G1 X0.1 Y200.0 Z0.3 F1500.0 E15 ; Draw the first line
G1 X0.4 Y200.0 Z0.3 F5000.0 ; Move to side a little
G1 X0.4 Y20 Z0.3 F1500.0 E30 ; Draw the second line
G92 E0 ; Reset Extruder
G1 Z2.0 F3000 ; Move Z Axis up little to prevent scratching of Heat Bed
G1 X5 Y20 Z0.3 F5000.0 ; Move over to prevent blob squish
G92 E0
G92 E0
G1 F2700 E-5
;LAYER_COUNT:58
;LAYER:0
M107
;MESH:Magnetic_unity.stl
G0 F6000 X117.353 Y100.83 Z0.2
;TYPE:WALL-INNER
G1 F2700 E0
G1 F1200 X116.978 Y100.732 E0.01289
G1 X116.704 Y100.574 E0.02341
G1 X116.415 Y100.282 E0.03708
G1 X116.3 Y100.104 E0.04412
G1 X116.18 Y99.793 E0.05521
G1 X116.18 Y99.304 E0.07148
G1 X116.187 Y99.211 E0.07458
G1 X116.226 Y99.071 E0.07941
G1 X116.359 Y98.772 E0.0903
G1 X116.762 Y98.375 E0.10911
G1 X116.978 Y98.268 E0.11713
G1 X117.41 Y98.158 E0.13195
G1 X117.658 Y98.17 E0.14021
G1 X118.07 Y98.279 E0.15439
G1 X118.247 Y98.373 E0.16105
G1 X118.494 Y98.58 E0.17177
G1 X118.71 Y98.894 E0.18445
G1 X118.824 Y99.224 E0.19606
G1 X118.856 Y99.511 E0.20567
G1 X118.816 Y99.845 E0.21685
G1 X118.711 Y100.106 E0.22621
G1 X118.488 Y100.428 E0.23924
G1 X118.247 Y100.626 E0.24961
G1 X118.034 Y100.731 E0.25751
G1 X117.609 Y100.841 E0.27211
G1 X117.353 Y100.83 E0.28063
G0 F6000 X117.027 Y100.331
;TYPE:WALL-OUTER
G1 F1200 X116.707 Y100.009 E0.29573
G1 X116.585 Y99.741 E0.30553
G1 X116.582 Y99.273 E0.32109
G1 X116.687 Y99.011 E0.33048
G1 X117.031 Y98.668 E0.34664
G1 X117.507 Y98.544 E0.363
G1 X117.944 Y98.659 E0.37803
G1 X118.195 Y98.846 E0.38844
G1 X118.314 Y99 E0.39491
G1 X118.417 Y99.232 E0.40335
G1 X118.456 Y99.504 E0.41249
G1 X118.42 Y99.758 E0.42103
G1 X118.341 Y99.954 E0.42805
G1 X118.187 Y100.164 E0.43672
G1 X117.932 Y100.344 E0.4471
G1 X117.505 Y100.456 E0.46178
G1 X117.027 Y100.331 E0.47821
G1 F2700 E-4.52179
G0 F6000 X116.95 Y100.619
G0 X116.574 Y100.7
G0 X100.803 Y116.686
G0 X100.125 Y118.708
;TYPE:WALL-INNER
G1 F2700 E0.47821
G1 F1200 X99.587 Y118.844 E0.49667
G1 X99.352 Y118.83 E0.5045
G1 X98.978 Y118.732 E0.51736
G1 X98.765 Y118.627 E0.52526
G1 X98.353 Y118.221 E0.5445
G1 X98.18 Y117.821 E0.55899
G1 X98.18 Y117.304 E0.57619
G1 X98.226 Y117.071 E0.58409
G1 X98.354 Y116.778 E0.59472
G1 X98.765 Y116.372 E0.61394
G1 X98.978 Y116.268 E0.62182
G1 X99.352 Y116.17 E0.63468
G1 X99.592 Y116.156 E0.64267
G1 X100.128 Y116.293 E0.66107
G1 X100.402 Y116.492 E0.67234
G1 X100.653 Y116.787 E0.68522
G1 X100.817 Y117.144 E0.69829
G1 X100.855 Y117.529 E0.71116
G1 X100.814 Y117.861 E0.72228
G1 X100.651 Y118.217 E0.7353
G1 X100.402 Y118.507 E0.74802
G1 X100.125 Y118.708 E0.7594
G0 F6000 X99.503 Y118.456
;TYPE:WALL-OUTER
G1 F1200 X99.031 Y118.332 E0.77563
G1 X98.686 Y117.987 E0.79186
G1 X98.58 Y117.701 E0.802
G1 X98.58 Y117.304 E0.81521
G1 X98.686 Y117.013 E0.82551
G1 X99.031 Y116.668 E0.84174
G1 X99.504 Y116.544 E0.858
G1 X99.964 Y116.667 E0.87384
G1 X100.195 Y116.846 E0.88356
G1 X100.341 Y117.046 E0.89179
G1 X100.415 Y117.226 E0.89827
G1 X100.454 Y117.473 E0.90658
G1 X100.428 Y117.725 E0.91501
G1 X100.321 Y117.991 E0.92455
G1 X100.158 Y118.19 E0.9331
G1 X99.962 Y118.334 E0.94119
G1 X99.503 Y118.456 E0.95699
G1 F2700 E-4.04301
G0 F6000 X99.426 Y118.745
G0 X100.08 Y118.905
G0 X102.062 Y120.164
G0 X115.809 Y132.908
;TYPE:WALL-INNER
G1 F2700 E0.95699
G1 F1200 X114.723 Y132.748 E0.9935
G1 X113.588 Y132.499 E1.03215
G1 X112.472 Y132.161 E1.07093
G1 X111.448 Y131.768 E1.10741
G1 X110.432 Y131.293 E1.14471
G1 X109.442 Y130.739 E1.18244
G1 X108.474 Y130.099 E1.22104
G1 X107.616 Y129.435 E1.25713
G1 X106.737 Y128.651 E1.2963
G1 X105.968 Y127.851 E1.33321
G1 X105.243 Y126.981 E1.37088
G1 X104.572 Y126.043 E1.40923
G1 X103.991 Y125.094 E1.44624
G1 X103.478 Y124.093 E1.48365
G1 X103.036 Y123.061 E1.52099
G1 X102.669 Y121.994 E1.55852
G1 X102.373 Y120.86 E1.5975
G1 X102.169 Y119.745 E1.63521
G1 X102.048 Y118.654 E1.67171
G1 X102.005 Y117.535 E1.70896
G1 X102.048 Y116.346 E1.74853
G1 X102.172 Y115.234 E1.78575
G1 X102.378 Y114.116 E1.82356
G1 X102.669 Y113.012 E1.86153
G1 X103.02 Y111.982 E1.89772
G1 X103.461 Y110.941 E1.93533
G1 X103.982 Y109.925 E1.9733
G1 X104.583 Y108.94 E2.01168
G1 X105.239 Y108.025 E2.04913
G1 X105.945 Y107.172 E2.08595
G1 X106.754 Y106.334 E2.1247
G1 X107.565 Y105.605 E2.16096
G1 X108.465 Y104.908 E2.19883
G1 X109.44 Y104.262 E2.23773
G1 X110.386 Y103.73 E2.27383
G1 X111.44 Y103.236 E2.31254
G1 X112.476 Y102.836 E2.34948
G1 X113.581 Y102.503 E2.38786
G1 X114.712 Y102.252 E2.42639
G1 X115.796 Y102.093 E2.46283
G1 X116.908 Y102.011 E2.49992
G1 X118.093 Y102.011 E2.53933
G1 X119.169 Y102.089 E2.57522
G1 X120.329 Y102.259 E2.61421
G1 X121.425 Y102.501 E2.65154
G1 X122.508 Y102.828 E2.68917
G1 X123.578 Y103.24 E2.7273
G1 X124.601 Y103.719 E2.76487
G1 X125.584 Y104.271 E2.80237
G1 X126.514 Y104.884 E2.83942
G1 X127.426 Y105.591 E2.8778
G1 X128.272 Y106.348 E2.91556
G1 X129.054 Y107.161 E2.95307
G1 X129.767 Y108.018 E2.99015
G1 X130.437 Y108.955 E3.02847
G1 X131.026 Y109.921 E3.0661
G1 X131.54 Y110.923 E3.10355
G1 X131.985 Y111.97 E3.14139
G1 X132.345 Y113.019 E3.17828
G1 X132.626 Y114.097 E3.21533
G1 X132.841 Y115.253 E3.25444
G1 X132.961 Y116.335 E3.29065
G1 X133.006 Y117.488 E3.32902
G1 X132.962 Y118.654 E3.36783
G1 X132.837 Y119.778 E3.40545
G1 X132.641 Y120.84 E3.44137
G1 X132.35 Y121.959 E3.47982
G1 X131.985 Y123.034 E3.51758
G1 X131.545 Y124.069 E3.55499
G1 X131.029 Y125.072 E3.5925
G1 X130.426 Y126.059 E3.63097
G1 X129.773 Y126.973 E3.66833
G1 X129.055 Y127.84 E3.70578
G1 X128.256 Y128.666 E3.744
G1 X127.418 Y129.418 E3.78145
G1 X126.53 Y130.102 E3.81873
G1 X125.591 Y130.725 E3.85621
G1 X124.624 Y131.27 E3.89313
G1 X123.549 Y131.773 E3.9326
G1 X122.517 Y132.17 E3.96938
G1 X121.434 Y132.496 E4.007
G1 X120.298 Y132.748 E4.0457
G1 X119.219 Y132.906 E4.08197
G1 X118.102 Y132.988 E4.11922
G1 X116.917 Y132.989 E4.15863
G1 X115.809 Y132.908 E4.19558
G0 F6000 X115.855 Y132.51
;TYPE:WALL-OUTER
G1 F1200 X114.767 Y132.35 E4.23216
G1 X113.678 Y132.109 E4.26926
G1 X112.615 Y131.787 E4.3062
G1 X111.6 Y131.398 E4.34235
G1 X110.603 Y130.931 E4.37897
G1 X109.631 Y130.386 E4.41603
G1 X108.719 Y129.783 E4.4524
G1 X107.85 Y129.11 E4.48896
G1 X107.025 Y128.373 E4.52575
G1 X106.261 Y127.579 E4.5624
G1 X105.555 Y126.73 E4.59912
G1 X104.913 Y125.834 E4.63579
G1 X104.338 Y124.893 E4.67246
G1 X103.835 Y123.911 E4.70916
G1 X103.406 Y122.909 E4.74541
G1 X103.045 Y121.854 E4.7825
G1 X102.767 Y120.788 E4.81914
G1 X102.567 Y119.701 E4.8559
G1 X102.446 Y118.616 E4.89221
G1 X102.405 Y117.52 E4.92869
G1 X102.446 Y116.39 E4.9663
G1 X102.566 Y115.306 E5.00257
G1 X102.765 Y114.218 E5.03936
G1 X103.048 Y113.141 E5.0764
G1 X103.403 Y112.099 E5.11301
G1 X103.836 Y111.084 E5.14971
G1 X104.336 Y110.112 E5.18607
G1 X104.909 Y109.173 E5.22266
G1 X105.559 Y108.266 E5.25977
G1 X106.261 Y107.419 E5.29636
G1 X107.022 Y106.632 E5.33277
G1 X107.844 Y105.893 E5.36954
G1 X108.705 Y105.228 E5.40572
G1 X109.636 Y104.611 E5.44287
G1 X110.596 Y104.072 E5.47949
G1 X111.605 Y103.601 E5.51652
G1 X112.62 Y103.21 E5.5527
G1 X113.678 Y102.891 E5.58945
G1 X114.756 Y102.65 E5.62619
G1 X115.85 Y102.49 E5.66297
G1 X116.951 Y102.41 E5.69968
G1 X118.064 Y102.41 E5.7367
G1 X119.155 Y102.49 E5.77308
G1 X120.243 Y102.65 E5.80966
G1 X121.332 Y102.891 E5.84676
G1 X122.395 Y103.213 E5.8837
G1 X123.409 Y103.602 E5.91982
G1 X124.405 Y104.068 E5.9564
G1 X125.374 Y104.611 E5.99334
G1 X126.291 Y105.217 E6.0299
G1 X127.16 Y105.89 E6.06646
G1 X127.984 Y106.626 E6.1032
G1 X128.755 Y107.429 E6.14023
G1 X129.454 Y108.269 E6.17657
G1 X130.095 Y109.164 E6.21319
G1 X130.67 Y110.106 E6.2499
G1 X131.175 Y111.089 E6.28665
G1 X131.607 Y112.1 E6.32322
G1 X131.965 Y113.145 E6.35996
G1 X132.242 Y114.212 E6.39662
G1 X132.443 Y115.297 E6.43333
G1 X132.564 Y116.394 E6.47003
G1 X132.606 Y117.488 E6.50645
G1 X132.564 Y118.61 E6.54379
G1 X132.443 Y119.706 E6.58047
G1 X132.244 Y120.782 E6.61686
G1 X131.965 Y121.848 E6.65351
G1 X131.607 Y122.901 E6.6905
G1 X131.174 Y123.916 E6.7272
G1 X130.673 Y124.888 E6.76357
G1 X130.1 Y125.827 E6.80016
G1 X129.456 Y126.729 E6.83702
G1 X128.757 Y127.572 E6.87345
G1 X127.988 Y128.368 E6.91026
G1 X127.166 Y129.107 E6.94702
G1 X126.295 Y129.778 E6.98359
G1 X125.381 Y130.385 E7.02009
G1 X124.414 Y130.928 E7.05697
G1 X123.405 Y131.399 E7.09401
G1 X122.39 Y131.79 E7.13019
G1 X121.327 Y132.11 E7.16711
G1 X120.254 Y132.35 E7.20368
G1 X119.16 Y132.51 E7.24045
G1 X118.073 Y132.589 E7.2767
G1 X116.946 Y132.59 E7.31418
G1 X115.855 Y132.51 E7.35057
G1 F2700 E2.35057
G0 F6000 X115.784 Y133.006
G0 X116.132 Y133.114
G0 X116.747 Y134.179
G0 X116.761 Y136.625
;TYPE:WALL-INNER
G1 F2700 E7.35057
G1 F1200 X116.356 Y136.225 E7.3695
G1 X116.18 Y135.822 E7.38413
G1 X116.18 Y135.304 E7.40136
G1 X116.196 Y135.163 E7.40608
G1 X116.3 Y134.895 E7.41564
G1 X116.419 Y134.713 E7.42287
G1 X116.704 Y134.426 E7.43632
G1 X116.978 Y134.268 E7.44684
G1 X117.401 Y134.159 E7.46137
G1 X117.658 Y134.17 E7.46993
G1 X118.034 Y134.27 E7.48287
G1 X118.247 Y134.373 E7.49074
G1 X118.512 Y134.601 E7.50236
G1 X118.711 Y134.894 E7.51414
G1 X118.819 Y135.164 E7.52382
G1 X118.855 Y135.525 E7.53588
G1 X118.815 Y135.851 E7.54681
G1 X118.71 Y136.106 E7.55598
G1 X118.494 Y136.42 E7.56866
G1 X118.247 Y136.626 E7.57935
G1 X118.069 Y136.721 E7.58606
G1 X117.618 Y136.839 E7.60157
G1 X117.393 Y136.839 E7.60905
G1 X116.978 Y136.732 E7.62331
G1 X116.761 Y136.625 E7.63135
G0 F6000 X117.505 Y136.456
;TYPE:WALL-OUTER
G1 F1200 X117.03 Y136.332 E7.64768
G1 X116.687 Y135.989 E7.66382
G1 X116.582 Y135.726 E7.67323
G1 X116.58 Y135.304 E7.68727
G1 X116.585 Y135.257 E7.68884
G1 X116.709 Y134.989 E7.69866
G1 X117.027 Y134.669 E7.71367
G1 X117.506 Y134.544 E7.73013
G1 X117.973 Y134.667 E7.7462
G1 X118.195 Y134.846 E7.75568
G1 X118.341 Y135.046 E7.76392
G1 X118.421 Y135.243 E7.77099
G1 X118.454 Y135.527 E7.7805
G1 X118.417 Y135.768 E7.78861
G1 X118.314 Y135.998 E7.79699
G1 X118.189 Y136.161 E7.80382
G1 X117.944 Y136.341 E7.81393
G1 X117.505 Y136.456 E7.82903
G1 F2700 E2.82903
G0 F6000 X117.428 Y136.746
G0 X116.855 Y136.868
G0 X116.662 Y138.672
G0 X115.906 Y138.839
;TYPE:WALL-INNER
G1 F2700 E7.82903
G1 F1200 X117.186 Y138.897 E7.87164
G1 X118.463 Y138.878 E7.91412
G1 X119.742 Y138.781 E7.95678
G1 X121.008 Y138.61 E7.99927
G1 X122.265 Y138.361 E8.04189
G1 X123.492 Y138.043 E8.08405
G1 X124.722 Y137.646 E8.12704
G1 X125.913 Y137.178 E8.1696
G1 X127.077 Y136.639 E8.21227
G1 X128.205 Y136.032 E8.25487
G1 X129.294 Y135.359 E8.29745
G1 X130.341 Y134.622 E8.34004
G1 X131.341 Y133.825 E8.38257
G1 X132.294 Y132.967 E8.42522
G1 X133.191 Y132.056 E8.46774
G1 X134.035 Y131.091 E8.51038
G1 X134.817 Y130.079 E8.55292
G1 X135.54 Y129.02 E8.59557
G1 X136.194 Y127.922 E8.63807
G1 X136.785 Y126.784 E8.68072
G1 X137.306 Y125.615 E8.72329
G1 X137.761 Y124.403 E8.76635
G1 X138.132 Y123.193 E8.80844
G1 X138.436 Y121.947 E8.8511
G1 X138.665 Y120.69 E8.8936
G1 X138.817 Y119.418 E8.9362
G1 X138.895 Y118.14 E8.97879
G1 X138.895 Y116.86 E9.02136
G1 X138.818 Y115.582 E9.06395
G1 X138.665 Y114.31 E9.10656
G1 X138.436 Y113.052 E9.14909
G1 X138.136 Y111.821 E9.19123
G1 X137.756 Y110.584 E9.23427
G1 X137.306 Y109.385 E9.27686
G1 X136.785 Y108.216 E9.31943
G1 X136.194 Y107.078 E9.36208
G1 X135.54 Y105.98 E9.40459
G1 X134.817 Y104.921 E9.44724
G1 X134.035 Y103.909 E9.48977
G1 X133.192 Y102.944 E9.53239
G1 X132.294 Y102.033 E9.57494
G1 X131.341 Y101.175 E9.61759
G1 X130.341 Y100.378 E9.66012
G1 X129.296 Y99.643 E9.70261
G1 X128.205 Y98.968 E9.74528
G1 X127.077 Y98.361 E9.78789
G1 X125.915 Y97.822 E9.83049
G1 X124.71 Y97.349 E9.87355
G1 X123.506 Y96.961 E9.91562
G1 X122.264 Y96.639 E9.9583
G1 X121.012 Y96.39 E10.00075
G1 X119.742 Y96.219 E10.04337
G1 X118.465 Y96.122 E10.08597
G1 X117.263 Y96.103 E10.12595
G1 X115.909 Y96.161 E10.17103
G1 X114.634 Y96.295 E10.21367
G1 X113.372 Y96.505 E10.25622
G1 X112.122 Y96.79 E10.29886
G1 X110.907 Y97.145 E10.34096
G1 X109.686 Y97.581 E10.38409
G1 X108.511 Y98.083 E10.42658
G1 X107.365 Y98.657 E10.46921
G1 X106.254 Y99.297 E10.51186
G1 X105.188 Y100.001 E10.55435
G1 X104.163 Y100.771 E10.59699
G1 X103.187 Y101.598 E10.63954
G1 X102.261 Y102.483 E10.68214
G1 X101.39 Y103.421 E10.72471
G1 X100.577 Y104.411 E10.76732
G1 X99.825 Y105.446 E10.80987
G1 X99.134 Y106.526 E10.85252
G1 X98.512 Y107.643 E10.89504
G1 X97.956 Y108.798 E10.93767
G1 X97.469 Y109.982 E10.98025
G1 X97.055 Y111.194 E11.02285
G1 X96.717 Y112.426 E11.06534
G1 X96.449 Y113.68 E11.10799
G1 X96.259 Y114.944 E11.15051
G1 X96.144 Y116.221 E11.19315
G1 X96.106 Y117.5 E11.23571
G1 X96.146 Y118.815 E11.27947
G1 X96.259 Y120.054 E11.32085
G1 X96.449 Y121.318 E11.36336
G1 X96.717 Y122.572 E11.40601
G1 X97.052 Y123.794 E11.44815
G1 X97.47 Y125.019 E11.4912
G1 X97.956 Y126.202 E11.53374
G1 X98.511 Y127.357 E11.57636
G1 X99.134 Y128.475 E11.61893
G1 X99.825 Y129.554 E11.66155
G1 X100.576 Y130.589 E11.70408
G1 X101.389 Y131.58 E11.74671
G1 X102.259 Y132.517 E11.78924
G1 X103.185 Y133.402 E11.83184
G1 X104.161 Y134.229 E11.87439
G1 X105.186 Y134.999 E11.91703
G1 X106.254 Y135.703 E11.95958
G1 X107.365 Y136.343 E12.00222
G1 X108.511 Y136.917 E12.04485
G1 X109.687 Y137.419 E12.08738
G1 X110.89 Y137.851 E12.12989
G1 X112.12 Y138.21 E12.17251
G1 X113.37 Y138.496 E12.21516
G1 X114.632 Y138.705 E12.2577
G1 X115.906 Y138.839 E12.30031
G0 F6000 X115.876 Y139.238
;TYPE:WALL-OUTER
G1 F1200 X117.18 Y139.297 E12.34373
G1 X118.481 Y139.278 E12.387
G1 X119.784 Y139.179 E12.43047
G1 X121.074 Y139.005 E12.47376
G1 X122.354 Y138.751 E12.51716
G1 X123.604 Y138.427 E12.56011
G1 X124.857 Y138.023 E12.6039
G1 X126.071 Y137.546 E12.64728
G1 X127.256 Y136.997 E12.69072
G1 X128.405 Y136.378 E12.73413
G1 X129.514 Y135.693 E12.77748
G1 X130.581 Y134.942 E12.82088
G1 X131.6 Y134.13 E12.86422
G1 X132.57 Y133.256 E12.90764
G1 X133.485 Y132.328 E12.95099
G1 X134.344 Y131.345 E12.99441
G1 X135.141 Y130.314 E13.03775
G1 X135.877 Y129.236 E13.08117
G1 X136.544 Y128.117 E13.12449
G1 X137.145 Y126.958 E13.16792
G1 X137.676 Y125.767 E13.21129
G1 X138.14 Y124.532 E13.25517
G1 X138.518 Y123.299 E13.29806
G1 X138.828 Y122.031 E13.34148
G1 X139.061 Y120.75 E13.38478
G1 X139.216 Y119.454 E13.4282
G1 X139.295 Y118.152 E13.47158
G1 X139.295 Y116.848 E13.51495
G1 X139.216 Y115.546 E13.55834
G1 X139.061 Y114.25 E13.60175
G1 X138.828 Y112.969 E13.64505
G1 X138.522 Y111.715 E13.68799
G1 X138.135 Y110.455 E13.73183
G1 X137.676 Y109.233 E13.77524
G1 X137.145 Y108.042 E13.81861
G1 X136.544 Y106.883 E13.86204
G1 X135.877 Y105.764 E13.90536
G1 X135.141 Y104.686 E13.94878
G1 X134.344 Y103.655 E13.99212
G1 X133.485 Y102.672 E14.03554
G1 X132.57 Y101.744 E14.07889
G1 X131.6 Y100.87 E14.12231
G1 X130.581 Y100.058 E14.16565
G1 X129.516 Y99.309 E14.20895
G1 X128.405 Y98.622 E14.2524
G1 X127.256 Y98.003 E14.29581
G1 X126.073 Y97.454 E14.33919
G1 X124.844 Y96.972 E14.38309
G1 X123.618 Y96.577 E14.42594
G1 X122.354 Y96.249 E14.46937
G1 X121.078 Y95.995 E14.51264
G1 X119.784 Y95.821 E14.55607
G1 X118.483 Y95.722 E14.59946
G1 X117.182 Y95.703 E14.64274
G1 X115.879 Y95.762 E14.68612
G1 X114.58 Y95.898 E14.72956
G1 X113.294 Y96.112 E14.77292
G1 X112.021 Y96.403 E14.81636
G1 X110.783 Y96.765 E14.85926
G1 X109.54 Y97.208 E14.90315
G1 X108.343 Y97.72 E14.94645
G1 X107.175 Y98.305 E14.9899
G1 X106.044 Y98.957 E15.03332
G1 X104.958 Y99.674 E15.0766
G1 X103.913 Y100.458 E15.12005
G1 X102.919 Y101.3 E15.16338
G1 X101.976 Y102.202 E15.20678
G1 X101.088 Y103.157 E15.25015
G1 X100.26 Y104.166 E15.29357
G1 X99.494 Y105.22 E15.3369
G1 X98.79 Y106.32 E15.38034
G1 X98.156 Y107.459 E15.4237
G1 X97.59 Y108.635 E15.4671
G1 X97.095 Y109.841 E15.51046
G1 X96.673 Y111.076 E15.55387
G1 X96.328 Y112.331 E15.59716
G1 X96.055 Y113.608 E15.64059
G1 X95.861 Y114.896 E15.68392
